; HEADER_BLOCK_START
; generated by OrcaSlicer 2.3.0 on 2026-07-21 at 14:26:56
; total layer number: 23
;_GP_TOTAL_LAYER_NUMBER_PLACEHOLDER
; filament_density: 1.24
; filament_diameter: 1.75
; max_z_height: 4.60
; HEADER_BLOCK_END

; THUMBNAIL_BLOCK_START

;
; THUMBNAIL_BLOCK_END

; external perimeters extrusion width = 0.42mm
; perimeters extrusion width = 0.45mm
; infill extrusion width = 0.45mm
; solid infill extrusion width = 0.42mm
; top infill extrusion width = 0.42mm
; first layer extrusion width = 0.50mm

; EXECUTABLE_BLOCK_START
M73 P0 R20
M106 S0
M106 P2 S0
;TYPE:Custom
M190 S55
M104 S220
G90
M83
G1 Z5 F6000
G1 E-0.2 F800
G1 X110 Y-110 F6000
G1 E2 F800
G1 Y-110 X55 Z0.25 F4800
G1 X-55 E8 F2400
G1 Y-109.6 F2400
G1 X55 E5 F2400
G1 Y-110 X55 Z0.45 F4800
G1 X-55 E8 F2400
G1 Y-109.6 F2400
G1 X55 E5 F2400
G92 E0
G90
G21
M83 ; use relative distances for extrusion
; filament start gcode
;right_extruder_material: PLA
SET_PRESSURE_ADVANCE ADVANCE=0.025; Override pressure advance value
M106 S0
M106 P2 S0
;LAYER_CHANGE
;Z:0.2
;HEIGHT:0.2
;BEFORE_LAYER_CHANGE
;0.2
G1 E-.8 F2100
M73 P1 R20
;AFTER_LAYER_CHANGE
;0.2
;_SET_FAN_SPEED_CHANGING_LAYER
SET_VELOCITY_LIMIT ACCEL=500
G1 X11.085 Y4.643 F30000
G1 Z.6
G1 Z.2
G1 E.8 F2100
;TYPE:Inner wall
;WIDTH:0.5
G1 F3000
G1 X10.831 Y4.465 E.01155
G1 X10.571 Y4.205 E.0137
G1 X10.36 Y3.904 E.0137
G1 X10.204 Y3.57 E.0137
G1 X10.109 Y3.215 E.0137
G1 X10.077 Y2.849 E.0137
G1 X10.109 Y2.482 E.0137
G1 X10.204 Y2.127 E.0137
G1 X10.36 Y1.793 E.0137
G1 X10.571 Y1.492 E.0137
G1 X10.831 Y1.232 E.0137
G1 X11.132 Y1.021 E.0137
G1 X11.466 Y.865 E.0137
G1 X11.821 Y.77 E.0137
G1 X12.181 Y.739 E.01346
G1 X12.552 Y.77 E.01388
G1 X12.909 Y.865 E.01376
G1 X13.243 Y1.021 E.0137
G1 X13.544 Y1.232 E.0137
G1 X13.804 Y1.492 E.0137
G1 X14.015 Y1.793 E.0137
G1 X14.168 Y2.121 E.01346
G1 X14.266 Y2.48 E.01388
G1 X14.298 Y2.849 E.01376
G1 X14.266 Y3.215 E.0137
G1 X14.171 Y3.57 E.0137
G1 X14.015 Y3.904 E.0137
G1 X13.804 Y4.205 E.0137
G1 X13.544 Y4.465 E.0137
G1 X13.243 Y4.676 E.0137
G1 X12.909 Y4.832 E.0137
G1 X12.554 Y4.927 E.0137
G1 X12.188 Y4.959 E.0137
G1 X11.821 Y4.927 E.0137
G1 X11.466 Y4.832 E.0137
G1 X11.132 Y4.676 E.0137
G1 X11.118 Y4.666 E.00066
G1 X11.347 Y4.269 F30000
;TYPE:Outer wall
G1 F3000
G1 X11.126 Y4.114 E.01006
G1 X10.922 Y3.91 E.01072
G1 X10.757 Y3.674 E.01072
G1 X10.636 Y3.413 E.01072
G1 X10.561 Y3.135 E.01072
G1 X10.536 Y2.849 E.01072
G1 X10.561 Y2.562 E.01072
G1 X10.636 Y2.284 E.01072
G1 X10.757 Y2.023 E.01072
G1 X10.922 Y1.787 E.01072
G1 X11.126 Y1.583 E.01072
G1 X11.362 Y1.418 E.01072
G1 X11.623 Y1.297 E.01072
G1 X11.901 Y1.222 E.01072
G1 X12.182 Y1.197 E.01051
G1 X12.474 Y1.222 E.0109
G1 X12.752 Y1.297 E.01075
G1 X13.013 Y1.418 E.01072
G1 X13.249 Y1.583 E.01072
G1 X13.453 Y1.787 E.01072
G1 X13.618 Y2.023 E.01072
G1 X13.737 Y2.279 E.01051
G1 X13.814 Y2.561 E.0109
G1 X13.839 Y2.849 E.01075
G1 X13.814 Y3.135 E.01072
G1 X13.739 Y3.413 E.01072
G1 X13.618 Y3.674 E.01072
G1 X13.453 Y3.91 E.01072
G1 X13.249 Y4.114 E.01072
G1 X13.013 Y4.279 E.01072
G1 X12.752 Y4.4 E.01072
G1 X12.474 Y4.475 E.01072
G1 X12.188 Y4.5 E.01072
G1 X11.901 Y4.475 E.01072
G1 X11.623 Y4.4 E.01072
G1 X11.382 Y4.288 E.00989
G1 E-.8 F2100
;WIPE_START
G1 F3000
G1 X11.126 Y4.114
G1 X10.922 Y3.91
G1 X10.757 Y3.674
G1 X10.636 Y3.413
G1 X10.561 Y3.135
G1 X10.536 Y2.849
G1 X10.558 Y2.599
;WIPE_END
G1 X2.929 Y2.846 Z.6 F30000
G1 X-20.888 Y3.619 Z.6
G1 Z.2
G1 E.8 F2100
;TYPE:Inner wall
G1 F3000
G1 X-20.911 Y3.57 E.00199
G1 X-21.006 Y3.215 E.0137
G1 X-21.038 Y2.849 E.0137
G1 X-21.006 Y2.482 E.0137
G1 X-20.911 Y2.127 E.0137
G1 X-20.755 Y1.793 E.0137
G1 X-20.544 Y1.492 E.0137
G1 X-20.284 Y1.232 E.0137
G1 X-19.983 Y1.021 E.0137
G1 X-19.649 Y.865 E.0137
G1 X-19.294 Y.77 E.0137
G1 X-18.934 Y.739 E.01346
G1 X-18.563 Y.77 E.01388
G1 X-18.206 Y.865 E.01376
G1 X-17.872 Y1.021 E.0137
G1 X-17.571 Y1.232 E.0137
G1 X-17.311 Y1.492 E.0137
G1 X-17.1 Y1.793 E.0137
G1 X-16.947 Y2.121 E.01346
G1 X-16.849 Y2.48 E.01388
G1 X-16.817 Y2.849 E.01376
G1 X-16.849 Y3.215 E.0137
G1 X-16.944 Y3.57 E.0137
G1 X-17.097 Y3.898 E.01346
G1 X-17.31 Y4.204 E.01388
G1 X-17.571 Y4.465 E.01376
G1 X-17.872 Y4.676 E.0137
G1 X-18.206 Y4.832 E.0137
G1 X-18.561 Y4.927 E.0137
G1 X-18.927 Y4.959 E.0137
G1 X-19.294 Y4.927 E.0137
G1 X-19.649 Y4.832 E.0137
G1 X-19.983 Y4.676 E.0137
G1 X-20.284 Y4.465 E.0137
G1 X-20.544 Y4.205 E.0137
G1 X-20.755 Y3.904 E.0137
G1 X-20.871 Y3.655 E.01022
G1 X-20.474 Y3.426 F30000
;TYPE:Outer wall
G1 F3000
G1 X-20.479 Y3.413 E.0005
G1 X-20.554 Y3.135 E.01072
G1 X-20.579 Y2.849 E.01072
G1 X-20.554 Y2.562 E.01072
G1 X-20.479 Y2.284 E.01072
G1 X-20.358 Y2.023 E.01072
G1 X-20.193 Y1.787 E.01072
G1 X-19.989 Y1.583 E.01072
G1 X-19.753 Y1.418 E.01072
G1 X-19.492 Y1.297 E.01072
G1 X-19.214 Y1.222 E.01072
G1 X-18.933 Y1.197 E.01051
G1 X-18.641 Y1.222 E.0109
G1 X-18.363 Y1.297 E.01075
G1 X-18.102 Y1.418 E.01072
G1 X-17.866 Y1.583 E.01072
G1 X-17.662 Y1.787 E.01072
G1 X-17.497 Y2.023 E.01072
G1 X-17.378 Y2.279 E.01051
G1 X-17.301 Y2.561 E.0109
G1 X-17.276 Y2.849 E.01075
G1 X-17.301 Y3.135 E.01072
G1 X-17.376 Y3.413 E.01072
G1 X-17.495 Y3.669 E.01051
G1 X-17.662 Y3.91 E.0109
G1 X-17.866 Y4.114 E.01075
G1 X-18.102 Y4.279 E.01072
G1 X-18.363 Y4.4 E.01072
G1 X-18.641 Y4.475 E.01072
G1 X-18.927 Y4.5 E.01072
G1 X-19.214 Y4.475 E.01072
G1 X-19.492 Y4.4 E.01072
G1 X-19.753 Y4.279 E.01072
G1 X-19.989 Y4.114 E.01072
G1 X-20.193 Y3.91 E.01072
G1 X-20.358 Y3.674 E.01072
G1 X-20.457 Y3.462 E.00873
G1 E-.8 F2100
;WIPE_START
G1 F3000
G1 X-20.479 Y3.413
G1 X-20.554 Y3.135
G1 X-20.579 Y2.849
G1 X-20.554 Y2.562
G1 X-20.479 Y2.284
G1 X-20.358 Y2.023
G1 X-20.193 Y1.787
G1 X-20.038 Y1.632
;WIPE_END
G1 X-20.227 Y9.262 Z.6 F30000
G1 X-20.992 Y40.097 Z.6
G1 Z.2
G1 E.8 F2100
;TYPE:Inner wall
G1 F3000
G1 X-21.006 Y40.045 E.002
G1 X-21.038 Y39.679 E.0137
G1 X-21.006 Y39.312 E.0137
G1 X-20.911 Y38.957 E.0137
G1 X-20.755 Y38.623 E.0137
G1 X-20.544 Y38.322 E.0137
G1 X-20.284 Y38.062 E.0137
G1 X-19.983 Y37.851 E.0137
G1 X-19.649 Y37.695 E.0137
G1 X-19.294 Y37.6 E.0137
G1 X-18.934 Y37.569 E.01346
G1 X-18.563 Y37.6 E.01388
G1 X-18.206 Y37.695 E.01376
G1 X-17.872 Y37.851 E.0137
G1 X-17.571 Y38.062 E.0137
G1 X-17.311 Y38.322 E.0137
G1 X-17.1 Y38.623 E.0137
G1 X-16.947 Y38.951 E.01346
G1 X-16.849 Y39.31 E.01388
G1 X-16.817 Y39.679 E.01376
G1 X-16.849 Y40.045 E.0137
G1 X-16.944 Y40.4 E.0137
G1 X-17.1 Y40.734 E.0137
G1 X-17.311 Y41.035 E.0137
G1 X-17.571 Y41.295 E.0137
G1 X-17.872 Y41.506 E.0137
G1 X-18.206 Y41.662 E.0137
G1 X-18.561 Y41.757 E.0137
G1 X-18.927 Y41.789 E.0137
G1 X-19.294 Y41.757 E.0137
G1 X-19.649 Y41.662 E.0137
G1 X-19.983 Y41.506 E.0137
G1 X-20.284 Y41.295 E.0137
G1 X-20.544 Y41.035 E.0137
G1 X-20.755 Y40.734 E.0137
G1 X-20.911 Y40.4 E.0137
G1 X-20.982 Y40.135 E.01022
G1 X-20.55 Y39.978 F30000
;TYPE:Outer wall
G1 F3000
G1 X-20.554 Y39.965 E.00051
G1 X-20.579 Y39.679 E.01072
G1 X-20.554 Y39.392 E.01072
G1 X-20.479 Y39.114 E.01072
G1 X-20.358 Y38.853 E.01072
G1 X-20.193 Y38.617 E.01072
G1 X-19.989 Y38.413 E.01072
G1 X-19.753 Y38.248 E.01072
G1 X-19.492 Y38.127 E.01072
G1 X-19.214 Y38.052 E.01072
G1 X-18.933 Y38.027 E.01051
G1 X-18.641 Y38.052 E.0109
G1 X-18.363 Y38.127 E.01075
G1 X-18.102 Y38.248 E.01072
G1 X-17.866 Y38.413 E.01072
G1 X-17.662 Y38.617 E.01072
G1 X-17.497 Y38.853 E.01072
G1 X-17.378 Y39.109 E.01051
G1 X-17.301 Y39.391 E.0109
G1 X-17.276 Y39.679 E.01075
G1 X-17.301 Y39.965 E.01072
G1 X-17.376 Y40.243 E.01072
G1 X-17.497 Y40.504 E.01072
G1 X-17.662 Y40.74 E.01072
G1 X-17.866 Y40.944 E.01072
G1 X-18.102 Y41.109 E.01072
G1 X-18.363 Y41.23 E.01072
G1 X-18.641 Y41.305 E.01072
G1 X-18.927 Y41.33 E.01072
G1 X-19.214 Y41.305 E.01072
G1 X-19.492 Y41.23 E.01072
G1 X-19.753 Y41.109 E.01072
G1 X-19.989 Y40.944 E.01072
G1 X-20.193 Y40.74 E.01072
G1 X-20.358 Y40.504 E.01072
G1 X-20.479 Y40.243 E.01072
G1 X-20.54 Y40.017 E.00873
G1 E-.8 F2100
;WIPE_START
G1 F3000
G1 X-20.554 Y39.965
G1 X-20.579 Y39.679
G1 X-20.554 Y39.392
G1 X-20.479 Y39.114
G1 X-20.358 Y38.853
G1 X-20.193 Y38.617
G1 X-19.989 Y38.413
G1 X-19.81 Y38.288
;WIPE_END
G1 X-12.178 Y38.423 Z.6 F30000
G1 X14.139 Y38.889 Z.6
G1 Z.2
G1 E.8 F2100
;TYPE:Inner wall
G1 F3000
G1 X14.168 Y38.951 E.00256
G1 X14.266 Y39.31 E.01388
G1 X14.298 Y39.679 E.01376
G1 X14.266 Y40.045 E.0137
G1 X14.171 Y40.4 E.0137
G1 X14.018 Y40.728 E.01346
G1 X13.805 Y41.034 E.01388
G1 X13.544 Y41.295 E.01376
G1 X13.243 Y41.506 E.0137
G1 X12.909 Y41.662 E.0137
G1 X12.554 Y41.757 E.0137
G1 X12.188 Y41.789 E.0137
G1 X11.821 Y41.757 E.0137
G1 X11.466 Y41.662 E.0137
G1 X11.132 Y41.506 E.0137
G1 X10.831 Y41.295 E.0137
G1 X10.571 Y41.035 E.0137
G1 X10.36 Y40.734 E.0137
G1 X10.204 Y40.4 E.0137
G1 X10.109 Y40.045 E.0137
G1 X10.077 Y39.679 E.0137
G1 X10.109 Y39.312 E.0137
G1 X10.204 Y38.957 E.0137
G1 X10.36 Y38.623 E.0137
G1 X10.571 Y38.322 E.0137
G1 X10.831 Y38.062 E.0137
G1 X11.132 Y37.851 E.0137
G1 X11.466 Y37.695 E.0137
G1 X11.821 Y37.6 E.0137
G1 X12.181 Y37.569 E.01346
G1 X12.552 Y37.6 E.01388
G1 X12.909 Y37.695 E.01376
G1 X13.243 Y37.851 E.0137
G1 X13.544 Y38.062 E.0137
G1 X13.804 Y38.322 E.0137
G1 X14.015 Y38.623 E.0137
G1 X14.122 Y38.852 E.00941
G1 X13.725 Y39.082 F30000
;TYPE:Outer wall
G1 F3000
G1 X13.737 Y39.109 E.0011
G1 X13.814 Y39.391 E.0109
G1 X13.839 Y39.679 E.01075
G1 X13.814 Y39.965 E.01072
G1 X13.739 Y40.243 E.01072
G1 X13.62 Y40.499 E.01052
G1 X13.453 Y40.74 E.0109
G1 X13.249 Y40.944 E.01075
G1 X13.013 Y41.109 E.01072
G1 X12.752 Y41.23 E.01072
G1 X12.474 Y41.305 E.01072
G1 X12.188 Y41.33 E.01072
G1 X11.901 Y41.305 E.01072
G1 X11.623 Y41.23 E.01072
G1 X11.362 Y41.109 E.01072
G1 X11.126 Y40.944 E.01072
G1 X10.922 Y40.74 E.01072
G1 X10.757 Y40.504 E.01072
G1 X10.636 Y40.243 E.01072
G1 X10.561 Y39.965 E.01072
G1 X10.536 Y39.679 E.01072
G1 X10.561 Y39.392 E.01072
G1 X10.636 Y39.114 E.01072
G1 X10.757 Y38.853 E.01072
G1 X10.922 Y38.617 E.01072
G1 X11.126 Y38.413 E.01072
G1 X11.362 Y38.248 E.01072
G1 X11.623 Y38.127 E.01072
G1 X11.901 Y38.052 E.01072
G1 X12.182 Y38.027 E.01051
G1 X12.474 Y38.052 E.0109
G1 X12.752 Y38.127 E.01075
G1 X13.013 Y38.248 E.01072
G1 X13.249 Y38.413 E.01072
G1 X13.453 Y38.617 E.01072
G1 X13.618 Y38.853 E.01072
G1 X13.708 Y39.046 E.00793
G1 E-.8 F2100
;WIPE_START
G1 F3000
G1 X13.737 Y39.109
G1 X13.814 Y39.391
G1 X13.839 Y39.679
G1 X13.814 Y39.965
G1 X13.739 Y40.243
G1 X13.62 Y40.499
G1 X13.453 Y40.74
G1 X13.313 Y40.88
;WIPE_END
G1 X20.507 Y38.331 Z.6 F30000
G1 X27.711 Y35.779 Z.6
G1 Z.2
G1 E.8 F2100
;TYPE:Inner wall
G1 F3000
G1 X27.686 Y35.786 E.00096
G1 X26.901 Y35.936 E.02977
G1 X26.106 Y36.015 E.02977
G1 X25.307 Y36.022 E.02977
G1 X24.51 Y35.957 E.02977
G1 X23.723 Y35.82 E.02977
G1 X22.951 Y35.613 E.02977
G1 X22.201 Y35.338 E.02977
G1 X21.479 Y34.995 E.02977
G1 X20.79 Y34.589 E.02977
G1 X20.141 Y34.123 E.02977
G1 X19.537 Y33.6 E.02977
G1 X18.982 Y33.024 E.02977
G1 X18.482 Y32.402 E.02977
G1 X18.039 Y31.736 E.02977
G1 X17.659 Y31.033 E.02977
G1 X17.343 Y30.299 E.02977
G1 X17.095 Y29.539 E.02977
G1 X16.916 Y28.76 E.02977
G1 X16.808 Y27.969 E.02977
G1 X16.773 Y27.19 E.02904
G1 X16.773 Y4.391 E.84917
G1 X16.742 Y3.722 E.02494
G1 X16.647 Y3.04 E.02565
G1 X16.496 Y2.405 E.02432
G1 X16.299 Y1.819 E.02302
G1 X16.023 Y1.188 E.02566
G1 X15.706 Y.618 E.02428
G1 X15.339 Y.08 E.02429
G1 X14.896 Y-.453 E.02579
G1 X14.434 Y-.913 E.02429
G1 X13.959 Y-1.308 E.02301
G1 X13.383 Y-1.705 E.02608
G1 X12.808 Y-2.025 E.02449
G1 X12.242 Y-2.274 E.02303
G1 X11.58 Y-2.499 E.02607
G1 X10.94 Y-2.65 E.02447
G1 X10.327 Y-2.735 E.02306
G1 X9.609 Y-2.772 E.02678
G1 X-16.35 Y-2.772 E.96687
G1 X-17.028 Y-2.74 E.02527
G1 X-17.678 Y-2.65 E.02447
G1 X-18.359 Y-2.487 E.02607
G1 X-18.945 Y-2.29 E.02304
G1 X-19.548 Y-2.025 E.02454
G1 X-20.124 Y-1.705 E.02453
G1 X-20.668 Y-1.333 E.02453
G1 X-21.175 Y-.913 E.02453
G1 X-21.636 Y-.453 E.02428
G1 X-22.079 Y.081 E.02581
G1 X-22.447 Y.619 E.02429
G1 X-22.764 Y1.19 E.02433
G1 X-23.028 Y1.787 E.02432
G1 X-23.236 Y2.405 E.02427
G1 X-23.393 Y3.077 E.02572
G1 X-23.482 Y3.721 E.02421
G1 X-23.513 Y4.391 E.02498
G1 X-23.513 Y17.924 E.50405
G1 X-23.549 Y18.717 E.02957
G1 X-23.661 Y19.523 E.03031
G1 X-23.846 Y20.315 E.03031
G1 X-24.104 Y21.087 E.03031
G1 X-24.431 Y21.833 E.03031
G1 X-24.825 Y22.545 E.03031
G1 X-25.282 Y23.217 E.03031
G1 X-25.8 Y23.845 E.03031
G1 X-26.332 Y24.382 E.02814
G1 X-26.995 Y24.945 E.03238
G1 X-27.665 Y25.41 E.03039
G1 X-28.374 Y25.81 E.03031
G1 X-29.116 Y26.143 E.03031
G1 X-29.886 Y26.407 E.03031
G1 X-30.677 Y26.599 E.03031
G1 X-31.482 Y26.717 E.03031
G1 X-32.295 Y26.762 E.03031
G1 X-33.05 Y26.734 E.02814
G1 X-33.912 Y26.627 E.03238
G1 X-34.709 Y26.448 E.03039
G1 X-35.483 Y26.197 E.03031
G1 X-36.231 Y25.877 E.03031
G1 X-36.946 Y25.489 E.03031
G1 X-37.623 Y25.037 E.03031
G1 X-38.255 Y24.524 E.03031
G1 X-38.838 Y23.956 E.03031
G1 X-39.366 Y23.337 E.03031
G1 X-39.828 Y22.682 E.02988
G1 X-40.786 Y21.119 E.06828
G1 X-41.678 Y19.53 E.06785
G1 X-42.509 Y17.909 E.06785
G1 X-43.278 Y16.258 E.06785
G1 X-43.985 Y14.579 E.06785
G1 X-44.627 Y12.874 E.06785
G1 X-45.205 Y11.146 E.06785
G1 X-45.716 Y9.398 E.06785
G1 X-46.161 Y7.631 E.06785
G1 X-46.539 Y5.849 E.06785
G1 X-46.85 Y4.054 E.06785
G1 X-47.092 Y2.249 E.06785
G1 X-47.254 Y.558 E.06327
G1 X-47.371 Y-1.383 E.0724
G1 X-47.407 Y-3.205 E.06788
G1 X-47.374 Y-5.026 E.06785
G1 X-47.273 Y-6.845 E.06785
G1 X-47.103 Y-8.659 E.06785
G1 X-46.864 Y-10.465 E.06785
G1 X-46.557 Y-12.26 E.06785
G1 X-46.208 Y-13.923 E.06327
G1 X-45.741 Y-15.81 E.0724
G1 X-45.232 Y-17.56 E.06788
G1 X-44.658 Y-19.289 E.06785
G1 X-44.019 Y-20.995 E.06785
G1 X-43.316 Y-22.675 E.06785
G1 X-42.55 Y-24.328 E.06785
G1 X-41.722 Y-25.951 E.06785
G1 X-40.833 Y-27.541 E.06785
G1 X-39.885 Y-29.096 E.06785
G1 X-38.878 Y-30.614 E.06785
G1 X-37.815 Y-32.094 E.06785
M73 P2 R20
G1 X-36.772 Y-33.435 E.06327
G1 X-35.525 Y-34.926 E.0724
G1 X-34.3 Y-36.276 E.06788
G1 X-33.112 Y-37.49 E.06327
G1 X-31.704 Y-38.83 E.0724
G1 X-30.335 Y-40.032 E.06788
G1 X-28.922 Y-41.182 E.06785
G1 X-27.466 Y-42.277 E.06785
G1 X-25.946 Y-43.332 E.06891
G1 X-24.272 Y-44.254 E.07116
G1 X-22.593 Y-45.101 E.07007
G1 X-20.998 Y-45.833 E.06535
G1 X-19.147 Y-46.609 E.07477
G1 X-17.385 Y-47.27 E.07011
G1 X-15.6 Y-47.866 E.07007
G1 X-13.795 Y-48.397 E.07008
G1 X-11.972 Y-48.863 E.07007
G1 X-10.258 Y-49.236 E.06535
G1 X-8.283 Y-49.595 E.07477
G1 X-6.42 Y-49.861 E.07011
G1 X-4.549 Y-50.059 E.07007
G1 X-2.672 Y-50.19 E.07007
G1 X-.918 Y-50.248 E.06535
G1 X1.089 Y-50.247 E.07477
G1 X2.97 Y-50.174 E.07011
G1 X4.846 Y-50.033 E.07007
G1 X6.716 Y-49.824 E.07008
G1 X8.577 Y-49.547 E.07007
G1 X10.426 Y-49.204 E.07007
G1 X12.263 Y-48.794 E.07008
G1 X14.083 Y-48.318 E.07007
G1 X15.885 Y-47.776 E.07008
G1 X17.666 Y-47.17 E.07007
G1 X19.423 Y-46.499 E.07007
G1 X21.156 Y-45.766 E.07008
G1 X22.861 Y-44.97 E.07007
G1 X24.536 Y-44.114 E.07007
G1 X26.179 Y-43.197 E.07008
G1 X27.788 Y-42.222 E.07007
G1 X29.36 Y-41.189 E.07008
G1 X30.895 Y-40.1 E.07007
G1 X32.388 Y-38.956 E.07008
G1 X33.84 Y-37.759 E.07008
G1 X35.247 Y-36.51 E.07007
G1 X36.609 Y-35.212 E.07007
G1 X37.942 Y-33.844 E.07116
G1 X39.079 Y-32.407 E.06823
G1 X40.143 Y-30.951 E.06718
G1 X41.153 Y-29.457 E.06717
G1 X42.106 Y-27.926 E.06718
G1 X43.001 Y-26.36 E.06717
G1 X43.836 Y-24.762 E.06717
G1 X44.612 Y-23.133 E.06718
G1 X45.277 Y-21.589 E.06264
G1 X45.976 Y-19.796 E.07167
G1 X46.564 Y-18.09 E.06721
G1 X47.088 Y-16.364 E.06717
G1 X47.546 Y-14.62 E.06718
G1 X47.939 Y-12.859 E.06717
G1 X48.266 Y-11.086 E.06717
G1 X48.526 Y-9.301 E.06717
G1 X48.719 Y-7.508 E.06717
G1 X48.845 Y-5.709 E.06718
G1 X48.903 Y-3.906 E.06717
G1 X48.894 Y-2.103 E.06717
G1 X48.817 Y-.301 E.06717
G1 X48.78 Y.157 E.01709
G1 X48.673 Y1.497 E.05008
G1 X48.461 Y3.288 E.06717
G1 X48.183 Y5.07 E.06718
G1 X47.838 Y6.84 E.06717
G1 X47.427 Y8.596 E.06717
G1 X46.951 Y10.336 E.06718
G1 X46.41 Y12.056 E.06717
G1 X45.804 Y13.755 E.06718
G1 X45.136 Y15.43 E.06717
G1 X44.405 Y17.079 E.06717
G1 X43.614 Y18.699 E.06717
G1 X42.762 Y20.289 E.06717
G1 X41.912 Y21.741 E.06264
G1 X40.883 Y23.366 E.07167
G1 X39.857 Y24.851 E.06721
G1 X38.777 Y26.296 E.06717
G1 X37.644 Y27.699 E.06717
G1 X36.46 Y29.059 E.06717
G1 X35.225 Y30.373 E.06718
