; HEADER_BLOCK_START
; generated by OrcaSlicer 2.3.0 on 2026-07-22 at 00:26:23
; total layer number: 46
;_GP_TOTAL_LAYER_NUMBER_PLACEHOLDER
; filament_density: 1.24
; filament_diameter: 1.75
; max_z_height: 9.20
; HEADER_BLOCK_END

; THUMBNAIL_BLOCK_START

;
; THUMBNAIL_BLOCK_END

; external perimeters extrusion width = 0.42mm
; perimeters extrusion width = 0.45mm
; infill extrusion width = 0.45mm
; solid infill extrusion width = 0.42mm
; top infill extrusion width = 0.42mm
; first layer extrusion width = 0.50mm

; EXECUTABLE_BLOCK_START
M73 P0 R17
M106 S0
M106 P2 S0
;TYPE:Custom
M190 S55
M104 S220
G90
M83
G1 Z5 F6000
G1 E-0.2 F800
G1 X110 Y-110 F6000
G1 E2 F800
G1 Y-110 X55 Z0.25 F4800
G1 X-55 E8 F2400
G1 Y-109.6 F2400
G1 X55 E5 F2400
G1 Y-110 X55 Z0.45 F4800
G1 X-55 E8 F2400
G1 Y-109.6 F2400
M73 P1 R17
G1 X55 E5 F2400
G92 E0
G90
G21
M83 ; use relative distances for extrusion
; filament start gcode
;right_extruder_material: PLA
SET_PRESSURE_ADVANCE ADVANCE=0.025; Override pressure advance value
M106 S0
M106 P2 S0
;LAYER_CHANGE
;Z:0.2
;HEIGHT:0.2
;BEFORE_LAYER_CHANGE
;0.2
G1 E-.8 F2100
;AFTER_LAYER_CHANGE
;0.2
;_SET_FAN_SPEED_CHANGING_LAYER
SET_VELOCITY_LIMIT ACCEL=500
G1 X-20.514 Y50.494 F30000
G1 Z.6
G1 Z.2
G1 E.8 F2100
;TYPE:Inner wall
;WIDTH:0.5
G1 F3000
G1 X-20.524 Y50.49 E.00039
G1 X-22.365 Y49.698 E.07464
G1 X-24.175 Y48.838 E.07464
G1 X-25.952 Y47.911 E.07464
G1 X-27.694 Y46.92 E.07464
G1 X-29.398 Y45.865 E.07464
G1 X-31.061 Y44.748 E.07464
G1 X-32.683 Y43.57 E.07464
G1 X-34.153 Y42.416 E.06961
G1 X-35.789 Y41.039 E.07964
G1 X-37.27 Y39.688 E.07468
G1 X-38.7 Y38.284 E.07464
G1 X-40.078 Y36.829 E.07464
G1 X-41.4 Y35.323 E.07464
G1 X-42.282 Y34.24 E.05202
G1 X-42.666 Y33.769 E.02263
G1 X-43.874 Y32.17 E.07464
G1 X-45.022 Y30.527 E.07464
G1 X-46.108 Y28.843 E.07464
G1 X-47.131 Y27.12 E.07464
G1 X-48.09 Y25.36 E.07464
G1 X-48.984 Y23.566 E.07464
G1 X-49.81 Y21.741 E.07464
G1 X-50.568 Y19.886 E.07464
G1 X-51.258 Y18.004 E.07464
G1 X-51.877 Y16.098 E.07464
G1 X-52.425 Y14.17 E.07464
G1 X-52.87 Y12.355 E.06961
G1 X-53.307 Y10.262 E.07964
G1 X-53.639 Y8.285 E.07467
G1 X-53.897 Y6.297 E.07464
G1 X-54.082 Y4.302 E.07464
G1 X-54.193 Y2.301 E.07464
G1 X-54.23 Y.297 E.07464
G1 X-54.193 Y-1.707 E.07464
G1 X-54.082 Y-3.708 E.07464
G1 X-53.897 Y-5.703 E.07464
G1 X-53.639 Y-7.691 E.07464
G1 X-53.307 Y-9.667 E.07464
G1 X-52.902 Y-11.63 E.07464
G1 X-52.425 Y-13.576 E.07464
G1 X-51.877 Y-15.504 E.07464
G1 X-51.258 Y-17.41 E.07464
G1 X-50.568 Y-19.292 E.07464
G1 X-49.81 Y-21.147 E.07464
G1 X-48.984 Y-22.972 E.07464
G1 X-48.317 Y-24.311 E.05569
G1 X-48.09 Y-24.766 E.01896
G1 X-47.131 Y-26.526 E.07464
G1 X-46.108 Y-28.249 E.07464
G1 X-45.022 Y-29.933 E.07464
G1 X-43.874 Y-31.576 E.07464
G1 X-42.666 Y-33.175 E.07464
G1 X-41.4 Y-34.729 E.07464
G1 X-40.078 Y-36.234 E.07464
G1 X-38.7 Y-37.69 E.07464
G1 X-37.27 Y-39.094 E.07464
G1 X-35.789 Y-40.444 E.07464
G1 X-34.259 Y-41.739 E.07464
G1 X-32.683 Y-42.976 E.07465
G1 X-31.061 Y-44.154 E.07464
G1 X-29.398 Y-45.271 E.07464
G1 X-27.694 Y-46.326 E.07464
G1 X-25.952 Y-47.317 E.07464
G1 X-24.175 Y-48.244 E.07464
G1 X-22.365 Y-49.104 E.07464
G1 X-20.524 Y-49.896 E.07464
G1 X-18.655 Y-50.62 E.07464
G1 X-17.242 Y-51.108 E.05569
G1 X-16.761 Y-51.275 E.01896
G1 X-14.844 Y-51.858 E.07464
G1 X-12.907 Y-52.371 E.07464
G1 X-10.952 Y-52.812 E.07464
G1 X-9.114 Y-53.155 E.06962
G1 X-7 Y-53.475 E.07963
G1 X-5.008 Y-53.697 E.07467
G1 X-3.009 Y-53.845 E.07464
G1 X-1.006 Y-53.919 E.07465
G1 X.998 Y-53.919 E.07464
G1 X3 Y-53.845 E.07465
G1 X4.999 Y-53.697 E.07464
G1 X6.991 Y-53.475 E.07464
G1 X8.973 Y-53.18 E.07464
G1 X10.943 Y-52.812 E.07464
G1 X12.898 Y-52.371 E.07464
G1 X14.835 Y-51.858 E.07464
G1 X16.623 Y-51.314 E.06962
G1 X18.646 Y-50.62 E.07963
G1 X20.515 Y-49.896 E.07467
G1 X22.356 Y-49.104 E.07464
G1 X24.166 Y-48.244 E.07464
G1 X25.943 Y-47.317 E.07465
G1 X27.685 Y-46.326 E.07464
G1 X29.389 Y-45.271 E.07464
G1 X31.052 Y-44.154 E.07464
G1 X32.674 Y-42.976 E.07464
G1 X34.144 Y-41.822 E.06962
G1 X35.78 Y-40.445 E.07963
G1 X37.261 Y-39.094 E.07467
G1 X38.691 Y-37.69 E.07464
G1 X40.069 Y-36.234 E.07464
G1 X41.391 Y-34.729 E.07464
G1 X42.657 Y-33.175 E.07465
G1 X43.865 Y-31.576 E.07464
G1 X44.935 Y-30.044 E.06962
G1 X46.099 Y-28.25 E.07963
G1 X47.122 Y-26.526 E.07467
G1 X48.081 Y-24.766 E.07464
G1 X48.975 Y-22.972 E.07464
G1 X49.801 Y-21.146 E.07464
G1 X50.559 Y-19.291 E.07464
G1 X51.249 Y-17.41 E.07464
G1 X51.868 Y-15.504 E.07465
G1 X52.416 Y-13.576 E.07464
G1 X52.893 Y-11.63 E.07464
G1 X53.298 Y-9.667 E.07464
G1 X53.629 Y-7.69 E.07464
G1 X53.888 Y-5.703 E.07464
G1 X54.073 Y-3.708 E.07464
G1 X54.184 Y-1.707 E.07464
G1 X54.219 Y.162 E.06962
G1 X54.184 Y2.3 E.07963
G1 X54.073 Y4.302 E.07467
G1 X53.888 Y6.297 E.07464
G1 X53.647 Y8.151 E.06962
G1 X53.298 Y10.26 E.07963
G1 X52.893 Y12.224 E.07467
G1 X52.448 Y14.039 E.06962
G1 X51.868 Y16.097 E.07963
G1 X51.249 Y18.004 E.07467
G1 X50.559 Y19.886 E.07464
G1 X49.801 Y21.741 E.07464
G1 X48.975 Y23.566 E.07465
G1 X48.081 Y25.36 E.07464
G1 X47.122 Y27.12 E.07464
G1 X46.099 Y28.843 E.07464
G1 X45.086 Y30.414 E.06962
G1 X43.865 Y32.169 E.07963
G1 X42.657 Y33.769 E.07467
G1 X41.391 Y35.323 E.07464
G1 X40.069 Y36.829 E.07464
G1 X38.691 Y38.284 E.07464
G1 X37.261 Y39.688 E.07464
G1 X35.78 Y41.038 E.07464
G1 X34.25 Y42.333 E.07464
G1 X32.674 Y43.57 E.07464
G1 X31.052 Y44.748 E.07464
G1 X29.389 Y45.865 E.07464
G1 X27.685 Y46.92 E.07464
G1 X25.943 Y47.911 E.07464
G1 X24.166 Y48.838 E.07464
G1 X22.356 Y49.698 E.07464
G1 X20.515 Y50.49 E.07464
G1 X18.646 Y51.214 E.07464
M73 P2 R17
G1 X16.752 Y51.869 E.07464
G1 X14.835 Y52.453 E.07464
G1 X12.898 Y52.965 E.07464
G1 X10.943 Y53.406 E.07464
G1 X8.973 Y53.774 E.07464
G1 X6.99 Y54.069 E.07464
G1 X5.133 Y54.276 E.06961
G1 X3.001 Y54.439 E.07964
G1 X.997 Y54.513 E.07468
G1 X-1.007 Y54.513 E.07464
G1 X-3.009 Y54.439 E.07465
G1 X-5.008 Y54.291 E.07464
G1 X-7 Y54.069 E.07464
G1 X-8.982 Y53.774 E.07464
G1 X-10.819 Y53.431 E.06961
G1 X-12.906 Y52.965 E.07964
G1 X-14.844 Y52.453 E.07467
G1 X-16.761 Y51.869 E.07464
G1 X-18.655 Y51.214 E.07464
G1 X-20.477 Y50.508 E.07276
G1 X-20.349 Y50.068 F30000
;TYPE:Outer wall
G1 F3000
G1 X-20.351 Y50.067 E.00008
G1 X-22.176 Y49.281 E.07401
G1 X-23.971 Y48.428 E.07401
G1 X-25.733 Y47.51 E.07401
G1 X-27.46 Y46.527 E.07401
G1 X-29.15 Y45.481 E.07402
G1 X-30.8 Y44.373 E.07401
G1 X-32.407 Y43.205 E.07401
G1 X-33.865 Y42.062 E.069
G1 X-35.487 Y40.695 E.07901
G1 X-36.956 Y39.356 E.07403
G1 X-38.374 Y37.964 E.07402
G1 X-39.74 Y36.521 E.07401
G1 X-41.051 Y35.028 E.07401
G1 X-41.928 Y33.951 E.0517
G1 X-42.307 Y33.487 E.02231
G1 X-43.504 Y31.901 E.07401
G1 X-44.642 Y30.272 E.07401
G1 X-45.719 Y28.602 E.07402
G1 X-46.734 Y26.894 E.07401
G1 X-47.685 Y25.149 E.07401
G1 X-48.571 Y23.37 E.07401
G1 X-49.39 Y21.56 E.07401
G1 X-50.142 Y19.72 E.07401
G1 X-50.826 Y17.854 E.07401
G1 X-51.44 Y15.965 E.07402
G1 X-51.983 Y14.053 E.07401
G1 X-52.424 Y12.254 E.069
G1 X-52.857 Y10.177 E.07901
G1 X-53.186 Y8.217 E.07403
G1 X-53.443 Y6.247 E.07401
G1 X-53.626 Y4.268 E.07401
G1 X-53.736 Y2.284 E.07401
G1 X-53.773 Y.297 E.07401
G1 X-53.736 Y-1.69 E.07401
G1 X-53.626 Y-3.674 E.07401
G1 X-53.443 Y-5.653 E.07401
G1 X-53.186 Y-7.623 E.07401
G1 X-52.857 Y-9.583 E.07401
G1 X-52.456 Y-11.529 E.07401
G1 X-51.983 Y-13.459 E.07402
G1 X-51.44 Y-15.371 E.07401
G1 X-50.825 Y-17.26 E.07402
G1 X-50.142 Y-19.126 E.07401
G1 X-49.39 Y-20.966 E.07401
G1 X-48.571 Y-22.776 E.07401
G1 X-47.908 Y-24.107 E.05537
G1 X-47.685 Y-24.555 E.01864
G1 X-46.734 Y-26.3 E.07401
G1 X-45.719 Y-28.008 E.07401
G1 X-44.642 Y-29.678 E.07402
G1 X-43.504 Y-31.307 E.07401
G1 X-42.306 Y-32.893 E.07401
G1 X-41.051 Y-34.434 E.07401
G1 X-39.74 Y-35.927 E.07401
G1 X-38.374 Y-37.37 E.07401
G1 X-36.956 Y-38.762 E.07401
G1 X-35.488 Y-40.101 E.07401
G1 X-33.971 Y-41.384 E.07401
G1 X-32.407 Y-42.611 E.07402
G1 X-30.8 Y-43.779 E.07401
G1 X-29.15 Y-44.887 E.07401
G1 X-27.46 Y-45.933 E.07402
G1 X-25.733 Y-46.916 E.07401
G1 X-23.971 Y-47.834 E.07401
G1 X-22.176 Y-48.687 E.07401
G1 X-20.351 Y-49.473 E.07401
G1 X-18.498 Y-50.191 E.07401
G1 X-17.093 Y-50.676 E.05537
G1 X-16.62 Y-50.84 E.01864
G1 X-14.719 Y-51.419 E.07402
G1 X-12.798 Y-51.927 E.07401
G1 X-10.859 Y-52.364 E.07401
G1 X-9.038 Y-52.705 E.06901
G1 X-6.941 Y-53.022 E.079
G1 X-4.966 Y-53.242 E.07403
G1 X-2.984 Y-53.389 E.07401
G1 X-.998 Y-53.462 E.07402
G1 X.989 Y-53.462 E.07401
G1 X2.975 Y-53.389 E.07402
G1 X4.957 Y-53.242 E.07401
G1 X6.932 Y-53.022 E.07401
G1 X8.897 Y-52.729 E.07401
G1 X10.85 Y-52.364 E.07402
G1 X12.789 Y-51.927 E.07401
G1 X14.71 Y-51.419 E.07401
G1 X16.482 Y-50.879 E.06901
G1 X18.489 Y-50.191 E.079
G1 X20.342 Y-49.473 E.07403
G1 X22.167 Y-48.687 E.07401
G1 X23.962 Y-47.834 E.07401
G1 X25.724 Y-46.916 E.07401
G1 X27.451 Y-45.933 E.07401
G1 X29.141 Y-44.887 E.07401
G1 X30.791 Y-43.779 E.07401
G1 X32.398 Y-42.611 E.07401
G1 X33.856 Y-41.467 E.06901
G1 X35.478 Y-40.101 E.079
G1 X36.947 Y-38.762 E.07402
G1 X38.365 Y-37.37 E.07402
G1 X39.731 Y-35.926 E.07401
G1 X41.042 Y-34.433 E.07401
G1 X42.297 Y-32.893 E.07401
G1 X43.495 Y-31.307 E.07401
G1 X44.556 Y-29.788 E.06901
G1 X45.71 Y-28.009 E.079
G1 X46.725 Y-26.3 E.07402
G1 X47.676 Y-24.555 E.07401
G1 X48.562 Y-22.776 E.07401
G1 X49.381 Y-20.966 E.07401
G1 X50.133 Y-19.126 E.07401
G1 X50.816 Y-17.26 E.07401
G1 X51.431 Y-15.37 E.07402
G1 X51.974 Y-13.459 E.07401
G1 X52.447 Y-11.529 E.07402
G1 X52.848 Y-9.583 E.07401
G1 X53.177 Y-7.623 E.07401
G1 X53.434 Y-5.653 E.07401
G1 X53.617 Y-3.674 E.07401
G1 X53.727 Y-1.69 E.07401
G1 X53.761 Y.163 E.06901
G1 X53.727 Y2.284 E.079
G1 X53.617 Y4.268 E.07403
G1 X53.434 Y6.247 E.07401
G1 X53.195 Y8.084 E.06901
G1 X52.848 Y10.177 E.079
G1 X52.447 Y12.123 E.07402
G1 X52.006 Y13.923 E.06901
G1 X51.431 Y15.964 E.079
G1 X50.816 Y17.855 E.07403
G1 X50.133 Y19.72 E.07401
G1 X49.381 Y21.56 E.07401
G1 X48.562 Y23.37 E.07401
G1 X47.676 Y25.149 E.07401
G1 X46.725 Y26.894 E.07401
G1 X45.71 Y28.602 E.07401
G1 X44.706 Y30.159 E.06901
G1 X43.495 Y31.901 E.079
G1 X42.297 Y33.487 E.07403
G1 X41.042 Y35.028 E.07401
G1 X39.731 Y36.521 E.07401
G1 X38.365 Y37.964 E.07401
G1 X36.947 Y39.356 E.07402
G1 X35.479 Y40.695 E.07401
G1 X33.962 Y41.978 E.07401
G1 X32.398 Y43.205 E.07402
G1 X30.79 Y44.373 E.07401
G1 X29.141 Y45.481 E.07401
G1 X27.451 Y46.527 E.07402
G1 X25.724 Y47.51 E.07401
G1 X23.962 Y48.429 E.07401
G1 X22.167 Y49.281 E.07401
G1 X20.342 Y50.067 E.07401
G1 X18.489 Y50.785 E.07401
G1 X16.611 Y51.434 E.07401
G1 X14.71 Y52.013 E.07402
G1 X12.789 Y52.521 E.07401
G1 X10.85 Y52.958 E.07401
G1 X8.897 Y53.323 E.07402
G1 X6.932 Y53.616 E.07401
G1 X5.09 Y53.821 E.06901
G1 X2.975 Y53.983 E.07901
G1 X.989 Y54.056 E.07403
G1 X-.998 Y54.056 E.07401
G1 X-2.984 Y53.983 E.07402
G1 X-4.966 Y53.836 E.07401
G1 X-6.941 Y53.616 E.07401
G1 X-8.906 Y53.323 E.07401
G1 X-10.727 Y52.983 E.06901
G1 X-12.798 Y52.521 E.07901
G1 X-14.719 Y52.013 E.07402
G1 X-16.62 Y51.434 E.07402
G1 X-18.498 Y50.785 E.07401
G1 X-20.312 Y50.082 E.07245
G1 E-.8 F2100
;WIPE_START
G1 F3000
G1 X-20.351 Y50.067
G1 X-22.149 Y49.293
;WIPE_END
G1 X-15.63 Y45.325 Z.6 F30000
G1 X61.803 Y-1.803 Z.6
G1 Z.2
G1 E.8 F2100
;TYPE:Inner wall
G1 F3000
G1 X61.838 Y.297 E.07823
G1 X61.803 Y2.397 E.07823
G1 X61.696 Y4.495 E.07823
G1 X61.518 Y6.587 E.07823
G1 X61.268 Y8.673 E.07823
G1 X60.949 Y10.749 E.07823
G1 X60.559 Y12.812 E.07823
G1 X60.099 Y14.862 E.07823
G1 X59.57 Y16.894 E.07823
G1 X58.972 Y18.907 E.07823
G1 X58.306 Y20.899 E.07823
G1 X57.572 Y22.867 E.07822
G1 X56.773 Y24.81 E.07823
G1 X55.908 Y26.723 E.07823
G1 X54.978 Y28.607 E.07823
G1 X53.985 Y30.457 E.07822
G1 X52.93 Y32.273 E.07823
G1 X51.813 Y34.052 E.07823
G1 X50.637 Y35.793 E.07823
G1 X49.403 Y37.492 E.07823
G1 X48.111 Y39.148 E.07823
G1 X46.764 Y40.759 E.07823
G1 X45.363 Y42.324 E.07823
G1 X43.91 Y43.84 E.07822
G1 X42.406 Y45.307 E.07823
G1 X40.853 Y46.721 E.07823
G1 X39.253 Y48.081 E.07823
G1 X37.608 Y49.387 E.07823
G1 X35.92 Y50.636 E.07823
G1 X34.19 Y51.827 E.07823
G1 X32.42 Y52.958 E.07823
G1 X30.763 Y53.94 E.07175
G1 X28.77 Y55.038 E.08473
G1 X26.896 Y55.983 E.07819
G1 X24.989 Y56.864 E.07823
G1 X23.054 Y57.68 E.07823
G1 X21.092 Y58.43 E.07823
G1 X19.106 Y59.113 E.07823
G1 X17.098 Y59.728 E.07823
G1 X15.07 Y60.275 E.07823
G1 X13.024 Y60.752 E.07823
M73 P3 R17
G1 X10.964 Y61.159 E.07823
G1 X8.891 Y61.497 E.07823
G1 X6.808 Y61.763 E.07823
G1 X4.717 Y61.959 E.07823
G1 X2.62 Y62.084 E.07823
G1 X.521 Y62.138 E.07823
G1 X-1.58 Y62.12 E.07823
G1 X-3.678 Y62.031 E.07823
G1 X-5.772 Y61.87 E.07822
G1 X-7.86 Y61.639 E.07823
G1 X-9.938 Y61.337 E.07823
G1 X-12.005 Y60.964 E.07823
G1 X-14.058 Y60.522 E.07823
G1 X-16.095 Y60.01 E.07823
G1 X-18.114 Y59.429 E.07823
G1 X-20.111 Y58.78 E.07823
G1 X-22.085 Y58.064 E.07823
G1 X-24.034 Y57.28 E.07823
G1 X-25.955 Y56.432 E.07823
G1 X-27.846 Y55.518 E.07823
G1 X-29.705 Y54.541 E.07823
G1 X-31.53 Y53.501 E.07823
G1 X-33.319 Y52.4 E.07823
G1 X-35.069 Y51.239 E.07822
G1 X-36.778 Y50.018 E.07823
G1 X-38.445 Y48.741 E.07823
G1 X-40.068 Y47.408 E.07823
G1 X-41.645 Y46.02 E.07823
G1 X-43.174 Y44.58 E.07823
G1 X-44.652 Y43.088 E.07823
G1 X-46.08 Y41.548 E.07822
G1 X-47.454 Y39.959 E.07823
G1 X-48.773 Y38.325 E.07823
G1 X-50.036 Y36.647 E.07823
G1 X-51.242 Y34.927 E.07823
G1 X-52.388 Y33.168 E.07823
G1 X-53.384 Y31.519 E.07175
G1 X-54.499 Y29.535 E.08474
G1 X-55.46 Y27.669 E.07819
G1 X-56.357 Y25.77 E.07823
G1 X-57.19 Y23.842 E.07823
G1 X-57.956 Y21.886 E.07823
G1 X-58.598 Y20.07 E.07175
G1 X-59.288 Y17.902 E.08474
G1 X-59.852 Y15.88 E.07819
G1 X-60.346 Y13.839 E.07823
G1 X-60.772 Y11.782 E.07823
G1 X-61.126 Y9.712 E.07823
G1 X-61.387 Y7.803 E.07175
G1 X-61.625 Y5.541 E.08474
G1 X-61.767 Y3.446 E.07819
G1 X-61.832 Y1.521 E.07175
G1 X-61.838 Y-.754 E.08474
G1 X-61.767 Y-2.852 E.07819
G1 X-61.625 Y-4.948 E.07823
G1 X-61.411 Y-7.037 E.07823
G1 X-61.126 Y-9.118 E.07823
G1 X-60.771 Y-11.188 E.07822
G1 X-60.346 Y-13.245 E.07823
G1 X-59.852 Y-15.286 E.07823
G1 X-59.288 Y-17.309 E.07823
G1 X-58.656 Y-19.312 E.07823
G1 X-57.956 Y-21.292 E.07823
G1 X-57.19 Y-23.248 E.07823
G1 X-56.357 Y-25.176 E.07823
G1 X-55.46 Y-27.075 E.07823
G1 X-54.498 Y-28.942 E.07823
G1 X-53.474 Y-30.776 E.07823
G1 X-52.388 Y-32.574 E.07823
G1 X-51.242 Y-34.333 E.07823
G1 X-50.036 Y-36.053 E.07823
G1 X-48.773 Y-37.731 E.07823
G1 X-47.454 Y-39.365 E.07823
G1 X-46.08 Y-40.954 E.07823
G1 X-44.652 Y-42.494 E.07823
G1 X-43.173 Y-43.986 E.07823
G1 X-41.645 Y-45.426 E.07823
G1 X-40.068 Y-46.814 E.07823
G1 X-38.445 Y-48.147 E.07823
G1 X-36.778 Y-49.424 E.07823
G1 X-35.069 Y-50.644 E.07823
G1 X-33.319 Y-51.806 E.07823
G1 X-31.53 Y-52.907 E.07823
G1 X-29.705 Y-53.947 E.07823
G1 X-27.846 Y-54.924 E.07823
G1 X-25.955 Y-55.838 E.07823
G1 X-24.034 Y-56.686 E.07823
G1 X-22.085 Y-57.47 E.07823
G1 X-20.111 Y-58.186 E.07823
G1 X-18.113 Y-58.835 E.07823
G1 X-16.095 Y-59.416 E.07823
G1 X-14.058 Y-59.928 E.07823
G1 X-12.005 Y-60.37 E.07823
G1 X-9.938 Y-60.743 E.07823
G1 X-7.86 Y-61.045 E.07823
G1 X-5.772 Y-61.276 E.07823
G1 X-3.678 Y-61.437 E.07822
G1 X-1.58 Y-61.526 E.07823
G1 X.521 Y-61.544 E.07823
G1 X.994 Y-61.531 E.01764
G1 X2.62 Y-61.49 E.06059
G1 X4.717 Y-61.365 E.07823
G1 X6.808 Y-61.169 E.07823
G1 X8.891 Y-60.903 E.07823
G1 X10.964 Y-60.565 E.07823
G1 X13.025 Y-60.158 E.07823
G1 X15.07 Y-59.68 E.07823
G1 X17.098 Y-59.134 E.07823
G1 X19.106 Y-58.519 E.07823
G1 X21.092 Y-57.836 E.07823
G1 X23.054 Y-57.086 E.07822
G1 X24.989 Y-56.27 E.07823
G1 X26.896 Y-55.389 E.07823
G1 X28.771 Y-54.443 E.07823
G1 X30.613 Y-53.435 E.07823
G1 X32.42 Y-52.364 E.07823
G1 X34.19 Y-51.233 E.07823
G1 X35.92 Y-50.042 E.07823
G1 X37.608 Y-48.793 E.07823
G1 X39.118 Y-47.595 E.07176
G1 X40.854 Y-46.126 E.08472
G1 X42.406 Y-44.712 E.0782
G1 X43.91 Y-43.246 E.07823
G1 X45.363 Y-41.73 E.07823
G1 X46.764 Y-40.165 E.07823
G1 X48.111 Y-38.554 E.07823
G1 X49.403 Y-36.898 E.07823
G1 X50.637 Y-35.198 E.07823
G1 X51.716 Y-33.602 E.07176
G1 X52.93 Y-31.679 E.08472
G1 X53.985 Y-29.863 E.0782
G1 X54.978 Y-28.013 E.07822
G1 X55.908 Y-26.129 E.07823
G1 X56.773 Y-24.216 E.07822
G1 X57.572 Y-22.273 E.07823
G1 X58.306 Y-20.305 E.07823
G1 X58.917 Y-18.478 E.07176
G1 X59.57 Y-16.299 E.08473
