; HEADER_BLOCK_START
; generated by OrcaSlicer 2.3.0 on 2026-07-22 at 00:25:48
; total layer number: 317
;_GP_TOTAL_LAYER_NUMBER_PLACEHOLDER
; filament_density: 1.24
; filament_diameter: 1.75
; max_z_height: 63.40
; HEADER_BLOCK_END

; THUMBNAIL_BLOCK_START

;
; THUMBNAIL_BLOCK_END

; external perimeters extrusion width = 0.42mm
; perimeters extrusion width = 0.45mm
; infill extrusion width = 0.45mm
; solid infill extrusion width = 0.42mm
; top infill extrusion width = 0.42mm
; first layer extrusion width = 0.50mm

; EXECUTABLE_BLOCK_START
M73 P0 R76
M106 S0
M106 P2 S0
;TYPE:Custom
M190 S55
M104 S220
G90
M83
G1 Z5 F6000
G1 E-0.2 F800
G1 X110 Y-110 F6000
G1 E2 F800
G1 Y-110 X55 Z0.25 F4800
G1 X-55 E8 F2400
G1 Y-109.6 F2400
G1 X55 E5 F2400
G1 Y-110 X55 Z0.45 F4800
G1 X-55 E8 F2400
G1 Y-109.6 F2400
G1 X55 E5 F2400
G92 E0
G90
G21
M83 ; use relative distances for extrusion
; filament start gcode
;right_extruder_material: PLA
SET_PRESSURE_ADVANCE ADVANCE=0.025; Override pressure advance value
M106 S0
M106 P2 S0
;LAYER_CHANGE
;Z:0.2
;HEIGHT:0.2
;BEFORE_LAYER_CHANGE
;0.2
G1 E-.8 F2100
;AFTER_LAYER_CHANGE
;0.2
;_SET_FAN_SPEED_CHANGING_LAYER
SET_VELOCITY_LIMIT ACCEL=500
G1 X48.349 Y-13.979 F30000
G1 Z.6
G1 Z.2
G1 E.8 F2100
;TYPE:Inner wall
;WIDTH:0.5
G1 F3000
G1 X48.353 Y-13.968 E.00042
G1 X48.899 Y-12.047 E.07441
G1 X49.368 Y-10.105 E.07441
G1 X49.76 Y-8.146 E.07441
G1 X50.074 Y-6.173 E.07441
G1 X50.311 Y-4.189 E.07441
G1 X50.468 Y-2.198 E.07441
G1 X50.547 Y-.202 E.07441
G1 X50.547 Y1.796 E.07441
G1 X50.468 Y3.792 E.07441
G1 X50.311 Y5.784 E.07441
G1 X50.074 Y7.768 E.07441
G1 X49.76 Y9.74 E.07441
G1 X49.368 Y11.699 E.07441
G1 X48.899 Y13.641 E.07441
G1 X48.353 Y15.563 E.07441
G1 X47.732 Y17.462 E.07441
G1 X47.036 Y19.334 E.07441
G1 X46.267 Y21.178 E.07441
G1 X45.426 Y22.99 E.07441
G1 X44.514 Y24.767 E.07441
G1 X43.532 Y26.507 E.07441
G1 X42.482 Y28.207 E.07441
G1 X41.366 Y29.864 E.07441
G1 X40.186 Y31.475 E.07441
G1 X39.026 Y32.934 E.06939
G1 X37.639 Y34.552 E.07939
G1 X36.275 Y36.013 E.07444
G1 X34.856 Y37.419 E.07441
G1 X33.382 Y38.767 E.07441
G1 X31.856 Y40.056 E.07441
G1 X30.28 Y41.284 E.07441
G1 X28.657 Y42.449 E.07441
G1 X26.989 Y43.548 E.07441
G1 X25.279 Y44.581 E.07441
G1 X23.529 Y45.546 E.07441
G1 X21.743 Y46.44 E.07441
G1 X19.923 Y47.264 E.07441
G1 X18.071 Y48.014 E.07441
G1 X16.192 Y48.692 E.07441
G1 X14.287 Y49.294 E.07441
G1 X12.36 Y49.82 E.07441
G1 X10.414 Y50.27 E.07441
G1 X8.451 Y50.643 E.07441
G1 X6.475 Y50.938 E.07441
G1 X4.489 Y51.155 E.07441
G1 X2.496 Y51.293 E.07441
G1 X.5 Y51.352 E.07441
G1 X-1.498 Y51.332 E.07441
G1 X-3.493 Y51.234 E.07441
G1 X-5.483 Y51.056 E.07441
G1 X-7.465 Y50.8 E.07441
G1 X-9.434 Y50.466 E.07441
G1 X-11.389 Y50.055 E.07441
G1 X-13.326 Y49.567 E.07441
G1 X-15.243 Y49.002 E.07441
G1 X-17.135 Y48.362 E.07441
G1 X-19.001 Y47.648 E.07441
G1 X-20.837 Y46.861 E.07441
G1 X-22.64 Y46.002 E.07441
G1 X-24.289 Y45.135 E.06939
G1 X-26.138 Y44.074 E.07939
G1 X-27.828 Y43.007 E.07444
G1 X-29.474 Y41.874 E.07441
G1 X-31.074 Y40.678 E.07441
G1 X-32.625 Y39.419 E.07441
G1 X-34.125 Y38.1 E.07441
G1 X-35.572 Y36.723 E.07441
G1 X-36.964 Y35.289 E.07441
G1 X-38.298 Y33.802 E.07441
G1 X-39.486 Y32.367 E.06939
G1 X-40.783 Y30.676 E.07939
G1 X-41.932 Y29.041 E.07444
G1 X-43.016 Y27.362 E.07441
G1 X-44.031 Y25.642 E.07441
G1 X-44.979 Y23.883 E.07441
G1 X-45.796 Y22.209 E.06939
G1 X-46.661 Y20.261 E.07939
G1 X-47.393 Y18.401 E.07444
G1 X-48.052 Y16.515 E.07441
G1 X-48.596 Y14.734 E.06939
G1 X-49.143 Y12.673 E.07939
G1 X-49.574 Y10.722 E.07444
G1 X-49.927 Y8.756 E.07441
G1 X-50.202 Y6.777 E.07441
G1 X-50.399 Y4.789 E.07441
G1 X-50.518 Y2.795 E.07441
G1 X-50.557 Y.797 E.07441
G1 X-50.518 Y-1.2 E.07441
G1 X-50.399 Y-3.194 E.07441
G1 X-50.349 Y-3.7 E.01892
G1 X-50.202 Y-5.182 E.05549
G1 X-49.927 Y-7.161 E.07441
G1 X-49.574 Y-9.127 E.07441
G1 X-49.143 Y-11.078 E.07441
G1 X-48.635 Y-13.01 E.07441
G1 X-48.052 Y-14.921 E.07441
G1 X-47.393 Y-16.807 E.07441
G1 X-46.661 Y-18.665 E.07441
G1 X-45.856 Y-20.494 E.07441
G1 X-44.979 Y-22.289 E.07441
G1 X-44.031 Y-24.048 E.07441
G1 X-43.016 Y-25.768 E.07441
G1 X-41.932 Y-27.446 E.07441
G1 X-40.784 Y-29.081 E.07441
G1 X-39.572 Y-30.669 E.07441
G1 X-38.298 Y-32.208 E.07441
G1 X-37.054 Y-33.595 E.06939
G1 X-35.573 Y-35.128 E.07939
G1 X-34.125 Y-36.506 E.07444
G1 X-32.625 Y-37.825 E.07441
G1 X-31.178 Y-38.998 E.06939
G1 X-29.475 Y-40.279 E.07939
G1 X-27.828 Y-41.412 E.07444
G1 X-26.139 Y-42.479 E.07441
G1 X-24.409 Y-43.477 E.07441
G1 X-22.64 Y-44.407 E.07441
G1 X-20.837 Y-45.266 E.07441
G1 X-19.001 Y-46.054 E.07441
G1 X-17.135 Y-46.768 E.07441
G1 X-15.243 Y-47.407 E.07441
G1 X-13.326 Y-47.972 E.07441
G1 X-11.389 Y-48.46 E.07441
G1 X-9.434 Y-48.872 E.07441
G1 X-7.465 Y-49.206 E.07441
G1 X-5.483 Y-49.462 E.07441
G1 X-3.493 Y-49.639 E.07441
G1 X-1.498 Y-49.738 E.07441
G1 X.365 Y-49.756 E.06939
G1 X2.495 Y-49.698 E.07939
G1 X4.489 Y-49.56 E.07444
G1 X6.475 Y-49.344 E.07441
G1 X8.451 Y-49.049 E.07441
G1 X10.414 Y-48.676 E.07441
G1 X12.36 Y-48.226 E.07441
G1 X14.287 Y-47.699 E.07441
G1 X16.192 Y-47.097 E.07441
G1 X18.071 Y-46.42 E.07441
G1 X19.923 Y-45.669 E.07441
G1 X21.743 Y-44.846 E.07441
G1 X23.529 Y-43.951 E.07441
G1 X25.279 Y-42.987 E.07441
G1 X26.989 Y-41.954 E.07441
G1 X28.656 Y-40.854 E.07441
G1 X30.28 Y-39.689 E.07441
G1 X31.749 Y-38.544 E.06939
G1 X33.381 Y-37.173 E.07939
G1 X34.856 Y-35.824 E.07444
G1 X36.275 Y-34.418 E.07441
G1 X37.638 Y-32.958 E.07441
G1 X38.942 Y-31.445 E.07441
G1 X40.186 Y-29.881 E.07441
G1 X41.366 Y-28.269 E.07441
G1 X42.482 Y-26.612 E.07441
G1 X43.532 Y-24.913 E.07441
G1 X44.514 Y-23.173 E.07441
G1 X45.426 Y-21.395 E.07441
G1 X46.267 Y-19.584 E.07441
G1 X47.036 Y-17.74 E.07441
G1 X47.732 Y-15.867 E.07441
G1 X48.337 Y-14.017 E.0725
G1 X47.915 Y-13.837 F30000
;TYPE:Outer wall
G1 F3000
G1 X47.916 Y-13.835 E.00008
G1 X48.456 Y-11.93 E.07373
G1 X48.921 Y-10.006 E.07374
G1 X49.31 Y-8.065 E.07374
G1 X49.622 Y-6.11 E.07373
G1 X49.856 Y-4.144 E.07374
G1 X50.012 Y-2.171 E.07374
G1 X50.09 Y-.193 E.07374
G1 X50.09 Y1.787 E.07373
G1 X50.012 Y3.765 E.07374
G1 X49.856 Y5.739 E.07373
G1 X49.622 Y7.705 E.07374
G1 X49.31 Y9.659 E.07373
G1 X48.921 Y11.601 E.07374
G1 X48.456 Y13.525 E.07374
G1 X47.916 Y15.429 E.07373
G1 X47.3 Y17.311 E.07374
G1 X46.611 Y19.167 E.07374
G1 X45.849 Y20.994 E.07374
G1 X45.015 Y22.789 E.07373
G1 X44.593 Y23.612 E.03443
G1 X44.111 Y24.551 E.03931
G1 X43.138 Y26.275 E.07373
G1 X42.098 Y27.959 E.07374
G1 X40.992 Y29.601 E.07374
G1 X39.822 Y31.198 E.07374
G1 X38.674 Y32.642 E.06874
G1 X37.298 Y34.247 E.07872
G1 X35.947 Y35.695 E.07375
G1 X34.54 Y37.087 E.07374
G1 X33.08 Y38.424 E.07374
G1 X32.324 Y39.062 E.03687
G1 X31.567 Y39.701 E.03687
G1 X30.006 Y40.918 E.07374
G1 X28.397 Y42.072 E.07374
G1 X26.745 Y43.162 E.07373
G1 X25.05 Y44.185 E.07374
G1 X23.316 Y45.141 E.07374
G1 X21.546 Y46.028 E.07373
G1 X19.743 Y46.843 E.07374
G1 X17.908 Y47.587 E.07374
G1 X16.046 Y48.258 E.07373
G1 X14.158 Y48.855 E.07374
G1 X12.248 Y49.377 E.07374
G1 X10.32 Y49.823 E.07373
G1 X8.375 Y50.192 E.07374
G1 X6.417 Y50.485 E.07374
G1 X4.449 Y50.699 E.07374
G1 X2.474 Y50.836 E.07374
G1 X.495 Y50.895 E.07373
G1 X-1.485 Y50.875 E.07374
G1 X-3.462 Y50.778 E.07373
G1 X-5.434 Y50.602 E.07373
G1 X-7.397 Y50.348 E.07373
G1 X-9.349 Y50.017 E.07374
G1 X-11.286 Y49.61 E.07373
G1 X-13.206 Y49.126 E.07373
G1 X-15.105 Y48.566 E.07374
G1 X-15.577 Y48.406 E.01858
G1 X-16.98 Y47.932 E.05515
G1 X-18.829 Y47.225 E.07374
G1 X-20.648 Y46.444 E.07373
G1 X-22.436 Y45.593 E.07374
G1 X-24.069 Y44.734 E.06874
G1 X-25.902 Y43.682 E.07872
G1 X-27.576 Y42.625 E.07375
G1 X-29.207 Y41.503 E.07373
G1 X-30.793 Y40.317 E.07374
G1 X-32.33 Y39.07 E.07374
G1 X-33.817 Y37.763 E.07373
G1 X-35.251 Y36.398 E.07374
G1 X-36.63 Y34.978 E.07374
G1 X-37.951 Y33.504 E.07373
G1 X-39.128 Y32.082 E.06874
G1 X-40.415 Y30.406 E.07872
G1 X-41.553 Y28.786 E.07375
G1 X-42.627 Y27.122 E.07374
G1 X-43.633 Y25.417 E.07373
G1 X-44.572 Y23.674 E.07374
G1 X-45.382 Y22.016 E.06874
G1 X-46.239 Y20.084 E.07872
G1 X-46.965 Y18.242 E.07375
G1 X-47.617 Y16.373 E.07374
G1 X-48.156 Y14.608 E.06874
G1 X-48.698 Y12.565 E.07872
G1 X-49.125 Y10.632 E.07375
G1 X-49.475 Y8.684 E.07374
G1 X-49.748 Y6.723 E.07374
G1 X-49.944 Y4.753 E.07374
G1 X-50.061 Y2.777 E.07374
G1 X-50.1 Y.797 E.07373
G1 X-50.061 Y-1.182 E.07373
G1 X-49.944 Y-3.158 E.07374
G1 X-49.748 Y-5.128 E.07374
G1 X-49.475 Y-7.089 E.07374
G1 X-49.125 Y-9.037 E.07374
G1 X-48.698 Y-10.971 E.07374
G1 X-48.196 Y-12.885 E.07373
G1 X-47.617 Y-14.779 E.07374
G1 X-46.965 Y-16.648 E.07373
G1 X-46.239 Y-18.489 E.07374
G1 X-45.441 Y-20.301 E.07373
G1 X-44.572 Y-22.08 E.07374
G1 X-43.633 Y-23.823 E.07374
G1 X-42.627 Y-25.527 E.07373
G1 X-41.553 Y-27.191 E.07374
G1 X-40.415 Y-28.811 E.07373
G1 X-39.214 Y-30.384 E.07374
G1 X-37.951 Y-31.909 E.07374
G1 X-36.719 Y-33.283 E.06874
G1 X-35.251 Y-34.803 E.07872
G1 X-33.817 Y-36.168 E.07375
G1 X-32.33 Y-37.475 E.07373
G1 X-30.897 Y-38.638 E.06874
G1 X-29.208 Y-39.908 E.07872
G1 X-27.576 Y-41.03 E.07375
G1 X-25.902 Y-42.087 E.07373
G1 X-24.188 Y-43.077 E.07374
G1 X-22.436 Y-43.998 E.07374
G1 X-20.648 Y-44.85 E.07374
G1 X-18.829 Y-45.63 E.07373
G1 X-16.98 Y-46.338 E.07374
G1 X-15.105 Y-46.972 E.07373
G1 X-13.206 Y-47.531 E.07374
G1 X-11.286 Y-48.015 E.07373
G1 X-9.349 Y-48.423 E.07373
G1 X-7.397 Y-48.754 E.07374
G1 X-5.434 Y-49.007 E.07373
G1 X-3.462 Y-49.183 E.07374
G1 X-1.485 Y-49.281 E.07373
G1 X.361 Y-49.299 E.06874
G1 X2.473 Y-49.242 E.07872
G1 X4.449 Y-49.105 E.07375
G1 X6.417 Y-48.89 E.07374
G1 X8.375 Y-48.598 E.07374
G1 X10.32 Y-48.228 E.07374
G1 X12.248 Y-47.783 E.07373
G1 X14.158 Y-47.261 E.07374
G1 X16.046 Y-46.664 E.07374
G1 X17.908 Y-45.993 E.07373
G1 X19.743 Y-45.249 E.07374
G1 X21.546 Y-44.433 E.07374
G1 X23.316 Y-43.546 E.07373
G1 X25.05 Y-42.591 E.07374
G1 X26.745 Y-41.567 E.07374
G1 X28.397 Y-40.477 E.07373
G1 X30.006 Y-39.323 E.07374
G1 X31.462 Y-38.189 E.06874
G1 X33.08 Y-36.829 E.07872
G1 X34.54 Y-35.493 E.07375
G1 X35.947 Y-34.1 E.07374
G1 X37.298 Y-32.653 E.07374
G1 X38.59 Y-31.153 E.07373
G1 X39.822 Y-29.603 E.07374
G1 X40.992 Y-28.006 E.07374
G1 X42.098 Y-26.365 E.07374
G1 X43.138 Y-24.68 E.07374
G1 X44.111 Y-22.956 E.07373
G1 X44.339 Y-22.512 E.01858
G1 X45.015 Y-21.195 E.05515
G1 X45.849 Y-19.399 E.07373
G1 X46.611 Y-17.572 E.07374
G1 X47.3 Y-15.716 E.07374
G1 X47.903 Y-13.875 E.07216
G1 E-.8 F2100
;WIPE_START
G1 F3000
G1 X47.916 Y-13.835
G1 X48.45 Y-11.951
;WIPE_END
G1 X45.827 Y-4.784 Z.6 F30000
G1 X22.604 Y58.66 Z.6
G1 Z.2
G1 E.8 F2100
;TYPE:Inner wall
G1 F3000
G1 X23.178 Y59.247 E.03057
G1 X22.539 Y60.83 E.06356
G1 X21.072 Y60.545 E.05566
G1 X21.072 Y58.943 E.05968
G1 X21.721 Y58.7 E.02579
G1 X22.396 Y58.447 E.02685
G1 X22.576 Y58.632 E.00962
G1 X22.277 Y58.979 F30000
;TYPE:Outer wall
G1 F3000
G1 X22.642 Y59.353 E.01945
G1 X22.256 Y60.309 E.03841
G1 X21.53 Y60.168 E.02758
G1 X21.53 Y59.26 E.03384
G1 X21.881 Y59.128 E.014
G1 X22.24 Y58.994 E.01426
G1 E-.8 F2100
;WIPE_START
G1 F3000
G1 X22.642 Y59.353
G1 X22.256 Y60.309
G1 X21.835 Y60.228
;WIPE_END
G1 X29.428 Y61.007 Z.6 F30000
G1 X63.843 Y64.54 Z.6
G1 Z.2
G1 E.8 F2100
;TYPE:Inner wall
G1 F3000
G1 X-63.843 Y64.54 E4.75581
G1 X-63.843 Y-53.884 E4.41085
G1 X-63.807 Y-54.699 E.03039
G1 X-63.702 Y-55.497 E.02997
G1 X-63.531 Y-56.269 E.02945
G1 X-63.291 Y-57.029 E.02971
G1 X-62.986 Y-57.766 E.02971
G1 X-62.617 Y-58.474 E.0297
G1 X-62.189 Y-59.146 E.02971
G1 X-61.703 Y-59.779 E.02971
G1 X-61.164 Y-60.367 E.02971
G1 X-60.576 Y-60.906 E.02971
G1 X-59.944 Y-61.391 E.0297
G1 X-59.271 Y-61.82 E.02971
G1 X-58.564 Y-62.188 E.02971
G1 X-57.827 Y-62.493 E.02971
G1 X-57.066 Y-62.733 E.02971
G1 X-56.288 Y-62.906 E.0297
G1 X-55.497 Y-63.01 E.02971
G1 X-54.684 Y-63.046 E.0303
G1 X54.684 Y-63.046 E4.07355
G1 X55.497 Y-63.01 E.0303
G1 X56.288 Y-62.906 E.02971
G1 X57.066 Y-62.733 E.02971
G1 X57.827 Y-62.493 E.02971
G1 X58.564 Y-62.188 E.0297
G1 X59.271 Y-61.82 E.02971
G1 X59.944 Y-61.391 E.02971
G1 X60.576 Y-60.906 E.02971
G1 X61.164 Y-60.367 E.02971
G1 X61.703 Y-59.779 E.02971
G1 X62.189 Y-59.146 E.02971
G1 X62.617 Y-58.474 E.0297
G1 X62.986 Y-57.766 E.02971
G1 X63.291 Y-57.03 E.02971
G1 X63.531 Y-56.269 E.02971
G1 X63.703 Y-55.49 E.0297
G1 X63.807 Y-54.7 E.02971
G1 X63.843 Y-53.884 E.0304
G1 X63.843 Y64.5 E4.40936
G1 X64.3 Y64.997 F30000
M73 P0 R75
;TYPE:Outer wall
G1 F3000
G1 X-64.3 Y64.997 E4.78986
G1 X-64.3 Y-53.894 E4.42825
G1 X-64.263 Y-54.739 E.03151
G1 X-64.152 Y-55.577 E.03146
G1 X-63.973 Y-56.387 E.03093
G1 X-63.721 Y-57.186 E.03119
G1 X-63.4 Y-57.96 E.03119
G1 X-63.014 Y-58.702 E.03119
G1 X-62.564 Y-59.409 E.03119
G1 X-62.054 Y-60.073 E.03119
G1 X-61.488 Y-60.691 E.03119
G1 X-60.871 Y-61.256 E.03119
G1 X-60.206 Y-61.766 E.03119
G1 X-59.5 Y-62.216 E.03119
G1 X-58.757 Y-62.603 E.03119
G1 X-57.983 Y-62.923 E.03119
G1 X-57.185 Y-63.175 E.03119
G1 X-56.367 Y-63.356 E.03119
G1 X-55.537 Y-63.466 E.03119
G1 X-54.694 Y-63.503 E.03141
G1 X54.694 Y-63.503 E4.0743
G1 X55.537 Y-63.466 E.03141
M73 P1 R75
G1 X56.367 Y-63.357 E.03119
G1 X57.185 Y-63.175 E.03119
G1 X57.983 Y-62.923 E.03119
G1 X58.757 Y-62.603 E.03119
G1 X59.5 Y-62.216 E.03119
G1 X60.206 Y-61.766 E.03119
G1 X60.871 Y-61.256 E.03119
G1 X61.488 Y-60.691 E.03119
G1 X62.054 Y-60.073 E.03119
G1 X62.564 Y-59.409 E.03119
G1 X63.014 Y-58.703 E.03119
G1 X63.4 Y-57.96 E.03119
G1 X63.721 Y-57.186 E.03119
G1 X63.973 Y-56.387 E.03119
G1 X64.154 Y-55.57 E.03119
G1 X64.263 Y-54.739 E.03119
G1 X64.3 Y-53.894 E.03152
G1 X64.3 Y64.957 E4.42676
G1 E-.8 F2100
;WIPE_START
G1 F3000
G1 X62.3 Y64.958
;WIPE_END
G1 X62.055 Y57.329 Z.6 F30000
G1 X58.216 Y-62.184 Z.6
G1 Z.2
G1 E.8 F2100
;TYPE:Bottom surface
;WIDTH:0.500019
G1 F4800
G1 X62.561 Y-57.839 E.22887
G1 X62.675 Y-57.621 E.00913
G1 X62.968 Y-56.912 E.02859
G1 X63.027 Y-56.727 E.00723
G1 X57.524 Y-62.229 E.28985
G1 X56.977 Y-62.402 E.02136
G1 X56.628 Y-62.479 E.01333
G1 X63.277 Y-55.831 E.35023
G1 X63.365 Y-55.431 E.01526
G1 X63.416 Y-55.045 E.0145
G1 X55.842 Y-62.619 E.39898
G1 X55.467 Y-62.668 E.01409
G1 X55.132 Y-62.683 E.0125
G1 X63.48 Y-54.334 E.43977
G1 X63.5 Y-53.668 E.02483
G1 X54.465 Y-62.703 E.47593
G1 X53.819 Y-62.703 E.02408
G1 X63.5 Y-53.021 E.50998
G1 X63.5 Y-52.375 E.02408
G1 X53.172 Y-62.703 E.54403
G1 X52.526 Y-62.703 E.02408
G1 X63.5 Y-51.729 E.57808
G1 X63.5 Y-51.082 E.02408
G1 X51.879 Y-62.703 E.61213
G1 X51.233 Y-62.703 E.02408
G1 X63.5 Y-50.436 E.64619
G1 X63.5 Y-49.789 E.02408
G1 X50.587 Y-62.703 E.68024
G1 X49.94 Y-62.703 E.02408
G1 X63.5 Y-49.143 E.71429
G1 X63.5 Y-48.496 E.02408
G1 X49.294 Y-62.703 E.74834
G1 X48.647 Y-62.703 E.02408
G1 X63.5 Y-47.85 E.78239
G1 X63.5 Y-47.203 E.02408
G1 X48.001 Y-62.703 E.81644
G1 X47.354 Y-62.703 E.02408
G1 X63.5 Y-46.557 E.8505
G1 X63.5 Y-45.911 E.02408
G1 X46.708 Y-62.703 E.88455
G1 X46.062 Y-62.703 E.02408
G1 X63.5 Y-45.264 E.9186
G1 X63.5 Y-44.618 E.02408
G1 X45.415 Y-62.703 E.95265
G1 X44.769 Y-62.703 E.02408
G1 X63.5 Y-43.971 E.9867
G1 X63.5 Y-43.325 E.02408
G1 X44.122 Y-62.703 E1.02076
G1 X43.476 Y-62.703 E.02408
G1 X63.5 Y-42.678 E1.05481
G1 X63.5 Y-42.032 E.02408
G1 X42.829 Y-62.703 E1.08886
G1 X42.183 Y-62.703 E.02408
G1 X63.5 Y-41.386 E1.12291
G1 X63.5 Y-40.739 E.02408
G1 X41.536 Y-62.703 E1.15696
G1 X40.89 Y-62.703 E.02408
G1 X63.5 Y-40.093 E1.19101
G1 X63.5 Y-39.446 E.02408
G1 X40.244 Y-62.703 E1.22507
G1 X39.597 Y-62.703 E.02408
G1 X63.5 Y-38.8 E1.25912
G1 X63.5 Y-38.153 E.02408
G1 X38.951 Y-62.703 E1.29317
G1 X38.304 Y-62.703 E.02408
G1 X63.5 Y-37.507 E1.32722
G1 X63.5 Y-36.861 E.02408
G1 X37.658 Y-62.703 E1.36127
G1 X37.011 Y-62.703 E.02408
G1 X63.5 Y-36.214 E1.39533
G1 X63.5 Y-35.568 E.02408
G1 X36.365 Y-62.703 E1.42938
G1 X35.719 Y-62.703 E.02408
G1 X63.5 Y-34.921 E1.46343
G1 X63.5 Y-34.275 E.02408
G1 X35.072 Y-62.703 E1.49748
G1 X34.426 Y-62.703 E.02408
G1 X63.5 Y-33.628 E1.53153
G1 X63.5 Y-32.982 E.02408
G1 X33.779 Y-62.703 E1.56559
G1 X33.133 Y-62.703 E.02408
G1 X63.5 Y-32.335 E1.59964
G1 X63.5 Y-31.689 E.02408
G1 X32.486 Y-62.703 E1.63369
G1 X31.84 Y-62.703 E.02408
G1 X63.5 Y-31.043 E1.66774
G1 X63.5 Y-30.396 E.02408
G1 X31.194 Y-62.703 E1.70179
G1 X30.547 Y-62.703 E.02408
G1 X63.5 Y-29.75 E1.73584
