; HEADER_BLOCK_START
; generated by OrcaSlicer 2.3.0 on 2026-07-21 at 14:27:55
; total layer number: 624
;_GP_TOTAL_LAYER_NUMBER_PLACEHOLDER
; filament_density: 1.24
; filament_diameter: 1.75
; max_z_height: 124.80
; HEADER_BLOCK_END

; THUMBNAIL_BLOCK_START

;
; THUMBNAIL_BLOCK_END

; external perimeters extrusion width = 0.42mm
; perimeters extrusion width = 0.45mm
; infill extrusion width = 0.45mm
; solid infill extrusion width = 0.42mm
; top infill extrusion width = 0.42mm
; first layer extrusion width = 0.50mm

; EXECUTABLE_BLOCK_START
M73 P0 R106
M106 S0
M106 P2 S0
;TYPE:Custom
M190 S55
M104 S220
G90
M83
G1 Z5 F6000
G1 E-0.2 F800
G1 X110 Y-110 F6000
G1 E2 F800
G1 Y-110 X55 Z0.25 F4800
G1 X-55 E8 F2400
G1 Y-109.6 F2400
G1 X55 E5 F2400
G1 Y-110 X55 Z0.45 F4800
G1 X-55 E8 F2400
G1 Y-109.6 F2400
G1 X55 E5 F2400
G92 E0
G90
G21
M83 ; use relative distances for extrusion
; filament start gcode
;right_extruder_material: PLA
SET_PRESSURE_ADVANCE ADVANCE=0.025; Override pressure advance value
M106 S0
M106 P2 S0
;LAYER_CHANGE
;Z:0.2
;HEIGHT:0.2
;BEFORE_LAYER_CHANGE
;0.2
G1 E-.8 F2100
;AFTER_LAYER_CHANGE
;0.2
;_SET_FAN_SPEED_CHANGING_LAYER
SET_VELOCITY_LIMIT ACCEL=500
G1 X15.317 Y42.257 F30000
G1 Z.6
G1 Z.2
G1 E.8 F2100
;TYPE:Inner wall
;WIDTH:0.5
G1 F3000
G1 X15.272 Y42.278 E.00184
G1 X14.908 Y42.375 E.01403
G1 X14.571 Y42.405 E.01263
G1 X12.096 Y42.405 E.09218
G1 X11.758 Y42.375 E.01263
G1 X11.394 Y42.278 E.01403
G1 X11.053 Y42.119 E.01403
G1 X10.745 Y41.903 E.01403
G1 X10.478 Y41.636 E.01403
G1 X10.274 Y41.344 E.01329
G1 X10.104 Y40.991 E.01458
G1 X10.006 Y40.623 E.0142
G1 X9.976 Y40.285 E.01263
G1 X9.976 Y-32.19 E2.69941
G1 X10.006 Y-32.527 E.01263
G1 X10.103 Y-32.891 E.01403
G1 X10.262 Y-33.232 E.01403
G1 X10.478 Y-33.541 E.01403
G1 X10.745 Y-33.807 E.01403
G1 X11.053 Y-34.023 E.01403
G1 X11.394 Y-34.182 E.01403
G1 X11.758 Y-34.28 E.01403
G1 X12.096 Y-34.309 E.01263
G1 X14.571 Y-34.309 E.09218
G1 X14.908 Y-34.28 E.01263
G1 X15.272 Y-34.182 E.01403
G1 X15.614 Y-34.023 E.01403
G1 X15.922 Y-33.807 E.01403
G1 X16.188 Y-33.541 E.01403
G1 X16.404 Y-33.232 E.01403
G1 X16.563 Y-32.891 E.01403
G1 X16.661 Y-32.527 E.01403
G1 X16.69 Y-32.19 E.01263
G1 X16.69 Y40.285 E2.69941
G1 X16.661 Y40.623 E.01263
G1 X16.563 Y40.987 E.01403
G1 X16.404 Y41.328 E.01403
G1 X16.188 Y41.636 E.01403
G1 X15.936 Y41.889 E.01329
G1 X15.618 Y42.117 E.01458
G1 X15.353 Y42.24 E.01087
G1 X15.124 Y41.843 F30000
;TYPE:Outer wall
G1 F3000
G1 X15.115 Y41.847 E.00035
G1 X14.829 Y41.924 E.01105
G1 X14.551 Y41.948 E.01039
G1 X12.116 Y41.948 E.09069
G1 X11.838 Y41.924 E.01039
G1 X11.551 Y41.847 E.01105
G1 X11.283 Y41.721 E.01105
G1 X11.04 Y41.551 E.01105
G1 X10.83 Y41.342 E.01105
G1 X10.67 Y41.113 E.0104
G1 X10.535 Y40.832 E.0116
G1 X10.458 Y40.543 E.01113
G1 X10.433 Y40.265 E.01039
G1 X10.433 Y-32.17 E2.69793
G1 X10.458 Y-32.448 E.01039
G1 X10.534 Y-32.734 E.01105
G1 X10.66 Y-33.003 E.01105
G1 X10.83 Y-33.246 E.01105
G1 X11.04 Y-33.456 E.01105
G1 X11.283 Y-33.626 E.01105
G1 X11.551 Y-33.751 E.01105
G1 X11.838 Y-33.828 E.01105
G1 X12.116 Y-33.852 E.01039
G1 X14.551 Y-33.852 E.09069
G1 X14.829 Y-33.828 E.01039
G1 X15.115 Y-33.751 E.01105
G1 X15.384 Y-33.626 E.01105
G1 X15.627 Y-33.456 E.01105
G1 X15.837 Y-33.246 E.01105
G1 X16.007 Y-33.003 E.01105
G1 X16.132 Y-32.734 E.01105
G1 X16.209 Y-32.448 E.01105
G1 X16.233 Y-32.17 E.01039
G1 X16.233 Y40.265 E2.69793
G1 X16.209 Y40.543 E.01039
G1 X16.132 Y40.83 E.01105
G1 X16.007 Y41.099 E.01105
G1 X15.837 Y41.342 E.01105
G1 X15.639 Y41.539 E.0104
G1 X15.386 Y41.72 E.0116
G1 X15.16 Y41.826 E.00929
G1 E-.8 F2100
;WIPE_START
G1 F3000
G1 X15.115 Y41.847
G1 X14.829 Y41.924
G1 X14.551 Y41.948
G1 X13.176 Y41.948
;WIPE_END
G1 X20.795 Y41.502 Z.6 F30000
G1 X36.668 Y40.574 Z.6
G1 Z.2
G1 E.8 F2100
;TYPE:Inner wall
G1 F3000
G1 X36.643 Y40.285 E.01078
G1 X36.643 Y-32.19 E2.69941
G1 X36.672 Y-32.527 E.01263
G1 X36.77 Y-32.891 E.01403
G1 X36.929 Y-33.232 E.01403
G1 X37.145 Y-33.541 E.01403
G1 X37.411 Y-33.807 E.01403
G1 X37.72 Y-34.023 E.01403
G1 X38.061 Y-34.182 E.01403
G1 X38.425 Y-34.28 E.01403
G1 X38.763 Y-34.309 E.01263
G1 X41.237 Y-34.309 E.09218
G1 X41.575 Y-34.28 E.01263
G1 X41.939 Y-34.182 E.01403
G1 X42.28 Y-34.023 E.01403
G1 X42.589 Y-33.807 E.01403
G1 X42.855 Y-33.541 E.01403
G1 X43.071 Y-33.232 E.01403
G1 X43.23 Y-32.891 E.01403
G1 X43.328 Y-32.527 E.01403
G1 X43.357 Y-32.19 E.01263
G1 X43.357 Y40.285 E2.69941
G1 X43.328 Y40.623 E.01263
G1 X43.23 Y40.987 E.01403
G1 X43.071 Y41.328 E.01403
G1 X42.855 Y41.636 E.01403
G1 X42.603 Y41.889 E.01329
G1 X42.284 Y42.117 E.01458
G1 X41.939 Y42.278 E.0142
G1 X41.575 Y42.375 E.01403
G1 X41.237 Y42.405 E.01263
G1 X38.763 Y42.405 E.09218
G1 X38.425 Y42.375 E.01263
G1 X38.061 Y42.278 E.01403
G1 X37.72 Y42.119 E.01403
G1 X37.411 Y41.903 E.01403
G1 X37.145 Y41.636 E.01403
G1 X36.929 Y41.328 E.01403
G1 X36.77 Y40.987 E.01403
G1 X36.672 Y40.623 E.01403
G1 X36.672 Y40.614 E.00035
G1 X37.123 Y40.534 F30000
;TYPE:Outer wall
G1 F3000
G1 X37.1 Y40.265 E.01004
G1 X37.1 Y-32.17 E2.69793
G1 X37.124 Y-32.448 E.01039
G1 X37.201 Y-32.734 E.01105
G1 X37.326 Y-33.003 E.01105
G1 X37.497 Y-33.246 E.01105
G1 X37.706 Y-33.456 E.01105
G1 X37.949 Y-33.626 E.01105
G1 X38.218 Y-33.751 E.01105
G1 X38.505 Y-33.828 E.01105
G1 X38.783 Y-33.852 E.01039
G1 X41.217 Y-33.852 E.09069
G1 X41.495 Y-33.828 E.01039
G1 X41.782 Y-33.751 E.01105
G1 X42.051 Y-33.626 E.01105
G1 X42.294 Y-33.456 E.01105
G1 X42.503 Y-33.246 E.01105
G1 X42.674 Y-33.003 E.01105
G1 X42.799 Y-32.734 E.01105
G1 X42.876 Y-32.448 E.01105
G1 X42.9 Y-32.17 E.01039
G1 X42.9 Y40.265 E2.69793
G1 X42.876 Y40.543 E.01039
G1 X42.799 Y40.83 E.01105
G1 X42.674 Y41.099 E.01105
G1 X42.503 Y41.342 E.01105
G1 X42.306 Y41.539 E.0104
G1 X42.053 Y41.72 E.0116
G1 X41.782 Y41.847 E.01113
G1 X41.495 Y41.924 E.01105
G1 X41.217 Y41.948 E.01039
G1 X38.783 Y41.948 E.09069
G1 X38.505 Y41.924 E.01039
G1 X38.218 Y41.847 E.01105
G1 X37.949 Y41.721 E.01105
G1 X37.706 Y41.551 E.01105
G1 X37.497 Y41.342 E.01105
G1 X37.326 Y41.099 E.01105
G1 X37.201 Y40.83 E.01105
G1 X37.132 Y40.573 E.00991
G1 E-.8 F2100
;WIPE_START
G1 F3000
G1 X37.1 Y40.265
G1 X37.1 Y38.574
;WIPE_END
G1 X29.481 Y39.024 Z.6 F30000
G1 X-10.291 Y41.369 Z.6
G1 Z.2
G1 E.8 F2100
;TYPE:Inner wall
G1 F3000
G1 X-10.478 Y41.636 E.01218
G1 X-10.731 Y41.889 E.01329
G1 X-11.049 Y42.117 E.01458
G1 X-11.394 Y42.278 E.0142
G1 X-11.758 Y42.375 E.01403
G1 X-12.096 Y42.405 E.01263
G1 X-14.571 Y42.405 E.09218
G1 X-14.908 Y42.375 E.01263
G1 X-15.272 Y42.278 E.01403
G1 X-15.614 Y42.119 E.01403
G1 X-15.922 Y41.903 E.01403
G1 X-16.188 Y41.636 E.01403
G1 X-16.393 Y41.344 E.01329
G1 X-16.562 Y40.991 E.01458
G1 X-16.661 Y40.623 E.0142
G1 X-16.69 Y40.285 E.01263
G1 X-16.69 Y-32.19 E2.69941
G1 X-16.661 Y-32.527 E.01263
G1 X-16.563 Y-32.891 E.01403
G1 X-16.404 Y-33.232 E.01403
G1 X-16.188 Y-33.541 E.01403
G1 X-15.922 Y-33.807 E.01403
G1 X-15.614 Y-34.023 E.01403
G1 X-15.272 Y-34.182 E.01403
G1 X-14.908 Y-34.28 E.01403
G1 X-14.571 Y-34.309 E.01263
G1 X-12.096 Y-34.309 E.09218
G1 X-11.758 Y-34.28 E.01263
G1 X-11.394 Y-34.182 E.01403
G1 X-11.053 Y-34.023 E.01403
G1 X-10.745 Y-33.807 E.01403
G1 X-10.478 Y-33.541 E.01403
G1 X-10.262 Y-33.232 E.01403
G1 X-10.103 Y-32.891 E.01403
G1 X-10.006 Y-32.527 E.01403
G1 X-9.976 Y-32.19 E.01263
G1 X-9.976 Y40.285 E2.69941
G1 X-10.006 Y40.623 E.01263
G1 X-10.103 Y40.987 E.01403
G1 X-10.262 Y41.328 E.01403
G1 X-10.268 Y41.336 E.00035
G1 X-10.665 Y41.106 F30000
;TYPE:Outer wall
G1 F3000
G1 X-10.83 Y41.342 E.01069
G1 X-11.027 Y41.539 E.0104
G1 X-11.281 Y41.72 E.0116
G1 X-11.551 Y41.847 E.01113
G1 X-11.838 Y41.924 E.01105
G1 X-12.116 Y41.948 E.01039
G1 X-14.551 Y41.948 E.09069
G1 X-14.829 Y41.924 E.01039
G1 X-15.115 Y41.847 E.01105
G1 X-15.384 Y41.721 E.01105
G1 X-15.627 Y41.551 E.01105
G1 X-15.837 Y41.342 E.01105
G1 X-15.997 Y41.113 E.0104
G1 X-16.132 Y40.832 E.0116
G1 X-16.209 Y40.543 E.01113
G1 X-16.233 Y40.265 E.01039
G1 X-16.233 Y-32.17 E2.69793
G1 X-16.209 Y-32.448 E.01039
G1 X-16.132 Y-32.734 E.01105
G1 X-16.007 Y-33.003 E.01105
G1 X-15.837 Y-33.246 E.01105
G1 X-15.627 Y-33.456 E.01105
G1 X-15.384 Y-33.626 E.01105
G1 X-15.115 Y-33.751 E.01105
G1 X-14.829 Y-33.828 E.01105
G1 X-14.551 Y-33.852 E.01039
G1 X-12.116 Y-33.852 E.09069
G1 X-11.838 Y-33.828 E.01039
G1 X-11.551 Y-33.751 E.01105
G1 X-11.283 Y-33.626 E.01105
G1 X-11.04 Y-33.456 E.01105
G1 X-10.83 Y-33.246 E.01105
G1 X-10.66 Y-33.003 E.01105
G1 X-10.534 Y-32.734 E.01105
G1 X-10.458 Y-32.448 E.01105
G1 X-10.433 Y-32.17 E.01039
G1 X-10.433 Y40.265 E2.69793
G1 X-10.458 Y40.543 E.01039
G1 X-10.534 Y40.83 E.01105
G1 X-10.647 Y41.071 E.00991
G1 E-.8 F2100
;WIPE_START
G1 F3000
G1 X-10.83 Y41.342
G1 X-11.027 Y41.539
G1 X-11.281 Y41.72
G1 X-11.551 Y41.847
G1 X-11.838 Y41.924
G1 X-12.116 Y41.948
G1 X-12.324 Y41.948
;WIPE_END
G1 X-15.216 Y34.884 Z.6 F30000
G1 X-43.357 Y-33.852 Z.6
G1 Z.2
G1 E.8 F2100
;TYPE:Inner wall
G1 F3000
G1 X-43.357 Y-34.309 E.01702
G1 X-38.763 Y-34.309 E.17113
G1 X-38.425 Y-34.28 E.01263
G1 X-38.061 Y-34.182 E.01403
G1 X-37.72 Y-34.023 E.01403
G1 X-37.411 Y-33.807 E.01403
G1 X-37.145 Y-33.541 E.01403
G1 X-36.929 Y-33.232 E.01403
G1 X-36.77 Y-32.891 E.01403
G1 X-36.672 Y-32.527 E.01403
G1 X-36.643 Y-32.19 E.01263
G1 X-36.643 Y40.285 E2.69941
G1 X-36.672 Y40.623 E.01263
G1 X-36.77 Y40.987 E.01403
G1 X-36.929 Y41.328 E.01403
G1 X-37.145 Y41.636 E.01403
G1 X-37.397 Y41.889 E.01329
G1 X-37.716 Y42.117 E.01458
G1 X-38.061 Y42.278 E.0142
G1 X-38.425 Y42.375 E.01403
G1 X-38.763 Y42.405 E.01263
G1 X-41.237 Y42.405 E.09218
G1 X-41.575 Y42.375 E.01263
G1 X-41.939 Y42.278 E.01403
G1 X-42.28 Y42.119 E.01403
G1 X-42.589 Y41.903 E.01403
G1 X-42.855 Y41.636 E.01403
G1 X-43.071 Y41.328 E.01403
G1 X-43.23 Y40.987 E.01403
G1 X-43.328 Y40.623 E.01403
G1 X-43.357 Y40.285 E.01263
G1 X-43.357 Y-33.812 E2.75985
G1 X-42.9 Y-33.852 F30000
;TYPE:Outer wall
G1 F3000
G1 X-38.783 Y-33.852 E.15336
G1 X-38.505 Y-33.828 E.01039
G1 X-38.218 Y-33.751 E.01105
G1 X-37.949 Y-33.626 E.01105
G1 X-37.706 Y-33.456 E.01105
G1 X-37.497 Y-33.246 E.01105
G1 X-37.326 Y-33.003 E.01105
G1 X-37.201 Y-32.734 E.01105
G1 X-37.124 Y-32.448 E.01105
G1 X-37.1 Y-32.17 E.01039
G1 X-37.1 Y40.265 E2.69793
G1 X-37.124 Y40.543 E.01039
G1 X-37.201 Y40.83 E.01105
G1 X-37.326 Y41.099 E.01105
G1 X-37.497 Y41.342 E.01105
G1 X-37.694 Y41.539 E.0104
G1 X-37.947 Y41.72 E.0116
G1 X-38.218 Y41.847 E.01113
G1 X-38.505 Y41.924 E.01105
G1 X-38.783 Y41.948 E.01039
G1 X-41.217 Y41.948 E.09069
G1 X-41.495 Y41.924 E.01039
G1 X-41.782 Y41.847 E.01105
G1 X-42.051 Y41.721 E.01105
G1 X-42.294 Y41.551 E.01105
G1 X-42.503 Y41.342 E.01105
G1 X-42.674 Y41.099 E.01105
G1 X-42.799 Y40.83 E.01105
G1 X-42.876 Y40.543 E.01105
G1 X-42.9 Y40.265 E.01039
G1 X-42.9 Y-33.812 E2.7591
G1 E-.8 F2100
;WIPE_START
G1 F3000
G1 X-40.9 Y-33.832
;WIPE_END
G1 X-42.46 Y-26.36 Z.6 F30000
G1 X-62.043 Y67.404 Z.6
G1 Z.2
G1 E.8 F2100
;TYPE:Inner wall
G1 F3000
G1 X-62.043 Y-66.582 E4.99045
G1 X-61.221 Y-67.404 E.04331
G1 X61.221 Y-67.404 E4.56048
G1 X62.043 Y-66.582 E.04331
G1 X62.043 Y67.404 E4.99045
G1 X-62.003 Y67.404 E4.62024
G1 X-62.5 Y67.861 F30000
M73 P0 R105
;TYPE:Outer wall
G1 F3000
G1 X-62.5 Y-66.771 E5.01452
G1 X-61.41 Y-67.861 E.05741
G1 X61.41 Y-67.861 E4.57458
G1 X62.5 Y-66.771 E.05741
G1 X62.5 Y67.861 E5.01452
G1 X-62.46 Y67.861 E4.65429
M73 P1 R105
G1 E-.8 F2100
;WIPE_START
G1 F3000
G1 X-62.461 Y65.861
;WIPE_END
G1 X-57.229 Y60.304 Z.6 F30000
G1 X61.906 Y-66.233 Z.6
G1 Z.2
G1 E.8 F2100
;TYPE:Bottom surface
;WIDTH:0.500729
G1 F4800
G1 X61.078 Y-67.061 E.04367
G1 X60.431 Y-67.061 E.02415
G1 X61.7 Y-65.792 E.06697
G1 X61.7 Y-65.144 E.02415
G1 X59.783 Y-67.061 E.10113
G1 X59.136 Y-67.061 E.02415
G1 X61.7 Y-64.497 E.13529
G1 X61.7 Y-63.849 E.02415
G1 X58.488 Y-67.061 E.16945
G1 X57.841 Y-67.061 E.02415
G1 X61.7 Y-63.202 E.2036
G1 X61.7 Y-62.554 E.02415
G1 X57.193 Y-67.061 E.23776
G1 X56.546 Y-67.061 E.02415
G1 X61.7 Y-61.907 E.27192
G1 X61.7 Y-61.259 E.02415
G1 X55.899 Y-67.061 E.30608
G1 X55.251 Y-67.061 E.02415
G1 X61.7 Y-60.612 E.34023
G1 X61.7 Y-59.965 E.02415
G1 X54.604 Y-67.061 E.37439
G1 X53.956 Y-67.061 E.02415
G1 X61.7 Y-59.317 E.40855
G1 X61.7 Y-58.67 E.02415
G1 X53.309 Y-67.061 E.44271
G1 X52.661 Y-67.061 E.02415
G1 X61.7 Y-58.022 E.47686
G1 X61.7 Y-57.375 E.02415
G1 X52.014 Y-67.061 E.51102
G1 X51.367 Y-67.061 E.02415
G1 X61.7 Y-56.727 E.54518
G1 X61.7 Y-56.08 E.02415
G1 X50.719 Y-67.061 E.57934
G1 X50.072 Y-67.061 E.02415
G1 X61.7 Y-55.433 E.6135
G1 X61.7 Y-54.785 E.02415
G1 X49.424 Y-67.061 E.64765
G1 X48.777 Y-67.061 E.02415
G1 X61.7 Y-54.138 E.68181
G1 X61.7 Y-53.49 E.02415
G1 X48.129 Y-67.061 E.71597
G1 X47.482 Y-67.061 E.02415
G1 X61.7 Y-52.843 E.75013
G1 X61.7 Y-52.195 E.02415
G1 X46.834 Y-67.061 E.78428
G1 X46.187 Y-67.061 E.02415
G1 X61.7 Y-51.548 E.81844
G1 X61.7 Y-50.9 E.02415
G1 X45.54 Y-67.061 E.8526
G1 X44.892 Y-67.061 E.02415
G1 X61.7 Y-50.253 E.88676
G1 X61.7 Y-49.606 E.02415
G1 X44.245 Y-67.061 E.92091
G1 X43.597 Y-67.061 E.02415
G1 X61.7 Y-48.958 E.95507
G1 X61.7 Y-48.311 E.02415
G1 X42.95 Y-67.061 E.98923
G1 X42.302 Y-67.061 E.02415
G1 X61.7 Y-47.663 E1.02339
G1 X61.7 Y-47.016 E.02415
G1 X41.655 Y-67.061 E1.05755
G1 X41.008 Y-67.061 E.02415
G1 X61.7 Y-46.368 E1.0917
G1 X61.7 Y-45.721 E.02415
G1 X40.36 Y-67.061 E1.12586
G1 X39.713 Y-67.061 E.02415
G1 X61.7 Y-45.073 E1.16002
G1 X61.7 Y-44.426 E.02415
G1 X39.065 Y-67.061 E1.19418
G1 X38.418 Y-67.061 E.02415
G1 X61.7 Y-43.779 E1.22833
G1 X61.7 Y-43.131 E.02415
G1 X37.77 Y-67.061 E1.26249
G1 X37.123 Y-67.061 E.02415
G1 X61.7 Y-42.484 E1.29665
G1 X61.7 Y-41.836 E.02415
G1 X36.475 Y-67.061 E1.33081
G1 X35.828 Y-67.061 E.02415
G1 X61.7 Y-41.189 E1.36497
G1 X61.7 Y-40.541 E.02415
G1 X35.181 Y-67.061 E1.39912
G1 X34.533 Y-67.061 E.02415
G1 X61.7 Y-39.894 E1.43328
G1 X61.7 Y-39.247 E.02415
G1 X33.886 Y-67.061 E1.46744
G1 X33.238 Y-67.061 E.02415
G1 X61.7 Y-38.599 E1.5016
G1 X61.7 Y-37.952 E.02415
G1 X32.591 Y-67.061 E1.53575
G1 X31.943 Y-67.061 E.02415
G1 X61.7 Y-37.304 E1.56991
G1 X61.7 Y-36.657 E.02415
G1 X31.296 Y-67.061 E1.60407
G1 X30.648 Y-67.061 E.02415
G1 X61.7 Y-36.009 E1.63823
G1 X61.7 Y-35.362 E.02415
G1 X30.001 Y-67.061 E1.67238
G1 X29.354 Y-67.061 E.02415
G1 X61.7 Y-34.714 E1.70654
G1 X61.7 Y-34.067 E.02415
G1 X28.706 Y-67.061 E1.7407
G1 X28.059 Y-67.061 E.02415
G1 X61.7 Y-33.42 E1.77486
G1 X61.7 Y-32.772 E.02415
G1 X27.411 Y-67.061 E1.80902
G1 X26.764 Y-67.061 E.02415
G1 X61.7 Y-32.125 E1.84317
G1 X61.7 Y-31.477 E.02415
G1 X26.116 Y-67.061 E1.87733
G1 X25.469 Y-67.061 E.02415
G1 X61.7 Y-30.83 E1.91149
G1 X61.7 Y-30.182 E.02415
G1 X24.822 Y-67.061 E1.94565
G1 X24.174 Y-67.061 E.02415
G1 X61.7 Y-29.535 E1.9798
G1 X61.7 Y-28.887 E.02415
G1 X23.527 Y-67.061 E2.01396
G1 X22.879 Y-67.061 E.02415
G1 X61.7 Y-28.24 E2.04812
G1 X61.7 Y-27.593 E.02415
G1 X22.232 Y-67.061 E2.08228
G1 X21.584 Y-67.061 E.02415
G1 X61.7 Y-26.945 E2.11643
G1 X61.7 Y-26.298 E.02415
G1 X20.937 Y-67.061 E2.15059
G1 X20.289 Y-67.061 E.02415
G1 X61.7 Y-25.65 E2.18475
G1 X61.7 Y-25.003 E.02415
G1 X19.642 Y-67.061 E2.21891
G1 X18.995 Y-67.061 E.02415
G1 X61.7 Y-24.355 E2.25307
G1 X61.7 Y-23.708 E.02415
G1 X18.347 Y-67.061 E2.28722
G1 X17.7 Y-67.061 E.02415
G1 X61.7 Y-23.061 E2.32138
G1 X61.7 Y-22.413 E.02415
G1 X17.052 Y-67.061 E2.35554
G1 X16.405 Y-67.061 E.02415
G1 X61.7 Y-21.766 E2.3897
G1 X61.7 Y-21.118 E.02415
G1 X15.757 Y-67.061 E2.42385
G1 X15.11 Y-67.061 E.02415
G1 X61.7 Y-20.471 E2.45801
G1 X61.7 Y-19.823 E.02415
G1 X14.462 Y-67.061 E2.49217
G1 X13.815 Y-67.061 E.02415
G1 X61.7 Y-19.176 E2.52633
G1 X61.7 Y-18.528 E.02415
G1 X13.168 Y-67.061 E2.56048
G1 X12.52 Y-67.061 E.02415
G1 X61.7 Y-17.881 E2.59464
G1 X61.7 Y-17.234 E.02415
G1 X11.873 Y-67.061 E2.6288
G1 X11.225 Y-67.061 E.02415
G1 X61.7 Y-16.586 E2.66296
G1 X61.7 Y-15.939 E.02415
M73 P1 R104
G1 X10.578 Y-67.061 E2.69712
G1 X9.93 Y-67.061 E.02415
G1 X61.7 Y-15.291 E2.73127
G1 X61.7 Y-14.644 E.02415
G1 X43.633 Y-32.711 E.95317
G1 X43.553 Y-33.009 E.01151
G1 X43.369 Y-33.404 E.01629
G1 X43.119 Y-33.762 E.01629
G1 X42.81 Y-34.071 E.01629
G1 X42.452 Y-34.321 E.01629
G1 X42.057 Y-34.506 E.01629
G1 X41.758 Y-34.585 E.01151
