; HEADER_BLOCK_START
; generated by OrcaSlicer 2.3.0 on 2026-07-22 at 00:26:55
; total layer number: 228
;_GP_TOTAL_LAYER_NUMBER_PLACEHOLDER
; filament_density: 1.24
; filament_diameter: 1.75
; max_z_height: 45.60
; HEADER_BLOCK_END

; THUMBNAIL_BLOCK_START

;
; THUMBNAIL_BLOCK_END

; external perimeters extrusion width = 0.42mm
; perimeters extrusion width = 0.45mm
; infill extrusion width = 0.45mm
; solid infill extrusion width = 0.42mm
; top infill extrusion width = 0.42mm
; first layer extrusion width = 0.50mm

; EXECUTABLE_BLOCK_START
M73 P0 R59
M106 S0
M106 P2 S0
;TYPE:Custom
M190 S55
M104 S220
G90
M83
G1 Z5 F6000
G1 E-0.2 F800
G1 X110 Y-110 F6000
G1 E2 F800
G1 Y-110 X55 Z0.25 F4800
G1 X-55 E8 F2400
G1 Y-109.6 F2400
G1 X55 E5 F2400
G1 Y-110 X55 Z0.45 F4800
G1 X-55 E8 F2400
G1 Y-109.6 F2400
G1 X55 E5 F2400
G92 E0
G90
G21
M83 ; use relative distances for extrusion
; filament start gcode
;right_extruder_material: PLA
SET_PRESSURE_ADVANCE ADVANCE=0.025; Override pressure advance value
M106 S0
M106 P2 S0
;LAYER_CHANGE
;Z:0.2
;HEIGHT:0.2
;BEFORE_LAYER_CHANGE
;0.2
G1 E-.8 F2100
M73 P0 R58
;AFTER_LAYER_CHANGE
;0.2
;_SET_FAN_SPEED_CHANGING_LAYER
SET_VELOCITY_LIMIT ACCEL=500
G1 X5.381 Y37.004 F30000
G1 Z.6
G1 Z.2
G1 E.8 F2100
;TYPE:Inner wall
;WIDTH:0.5
G1 F3000
G1 X5.807 Y37.605 E.02745
G1 X6.179 Y38.278 E.02865
G1 X6.474 Y38.989 E.02865
G1 X6.686 Y39.728 E.02865
G1 X6.815 Y40.486 E.02865
G1 X6.858 Y41.254 E.02865
G1 X6.815 Y42.022 E.02865
G1 X6.686 Y42.78 E.02865
G1 X6.474 Y43.519 E.02865
G1 X6.179 Y44.23 E.02865
G1 X5.807 Y44.903 E.02865
G1 X5.362 Y45.53 E.02865
G1 X4.85 Y46.103 E.02865
G1 X4.276 Y46.616 E.02865
G1 X3.649 Y47.061 E.02865
G1 X2.976 Y47.433 E.02865
G1 X2.265 Y47.727 E.02865
G1 X1.526 Y47.94 E.02865
G1 X.768 Y48.069 E.02865
G1 X0 Y48.112 E.02865
G1 X-.768 Y48.069 E.02865
G1 X-1.526 Y47.94 E.02865
G1 X-2.265 Y47.727 E.02865
G1 X-2.976 Y47.433 E.02865
G1 X-3.649 Y47.061 E.02865
G1 X-4.276 Y46.616 E.02865
G1 X-4.85 Y46.103 E.02865
G1 X-5.362 Y45.53 E.02865
G1 X-5.807 Y44.903 E.02865
G1 X-6.179 Y44.23 E.02865
G1 X-6.474 Y43.519 E.02865
G1 X-6.686 Y42.78 E.02865
G1 X-6.815 Y42.022 E.02865
G1 X-6.858 Y41.254 E.02865
G1 X-6.815 Y40.486 E.02865
G1 X-6.686 Y39.728 E.02865
G1 X-6.474 Y38.989 E.02865
G1 X-6.179 Y38.278 E.02865
G1 X-5.807 Y37.605 E.02865
G1 X-5.362 Y36.978 E.02865
G1 X-4.85 Y36.404 E.02865
G1 X-4.276 Y35.892 E.02865
G1 X-3.649 Y35.447 E.02865
G1 X-2.976 Y35.075 E.02865
G1 X-2.265 Y34.78 E.02865
G1 X-1.526 Y34.567 E.02865
G1 X-.768 Y34.438 E.02865
G1 X-.362 Y34.416 E.01516
G1 X0 Y34.395 E.01349
G1 X.768 Y34.438 E.02865
G1 X1.526 Y34.567 E.02865
G1 X2.265 Y34.78 E.02865
G1 X2.976 Y35.075 E.02865
G1 X3.649 Y35.447 E.02865
G1 X4.276 Y35.892 E.02865
G1 X4.85 Y36.404 E.02865
G1 X5.357 Y36.972 E.02835
G1 X5 Y37.258 F30000
;TYPE:Outer wall
G1 F3000
G1 X5.004 Y37.263 E.00024
G1 X5.42 Y37.848 E.02673
G1 X5.767 Y38.477 E.02673
G1 X6.041 Y39.14 E.02673
G1 X6.24 Y39.83 E.02673
G1 X6.36 Y40.537 E.02673
G1 X6.401 Y41.254 E.02673
G1 X6.36 Y41.97 E.02673
G1 X6.24 Y42.678 E.02673
G1 X6.041 Y43.368 E.02673
G1 X5.767 Y44.031 E.02673
G1 X5.42 Y44.659 E.02673
G1 X5.004 Y45.244 E.02673
G1 X4.526 Y45.78 E.02673
G1 X3.991 Y46.258 E.02673
G1 X3.405 Y46.673 E.02673
G1 X2.777 Y47.021 E.02673
G1 X2.114 Y47.295 E.02673
G1 X1.424 Y47.494 E.02673
G1 X.717 Y47.614 E.02673
G1 X0 Y47.654 E.02673
G1 X-.717 Y47.614 E.02673
G1 X-1.424 Y47.494 E.02673
G1 X-2.114 Y47.295 E.02673
G1 X-2.777 Y47.021 E.02673
G1 X-3.405 Y46.673 E.02673
G1 X-3.991 Y46.258 E.02673
G1 X-4.526 Y45.78 E.02673
G1 X-5.004 Y45.245 E.02673
G1 X-5.42 Y44.659 E.02673
G1 X-5.767 Y44.031 E.02673
G1 X-6.041 Y43.368 E.02673
G1 X-6.24 Y42.678 E.02673
G1 X-6.36 Y41.97 E.02673
G1 X-6.401 Y41.254 E.02673
G1 X-6.36 Y40.537 E.02673
G1 X-6.24 Y39.829 E.02673
G1 X-6.041 Y39.14 E.02673
G1 X-5.767 Y38.477 E.02673
G1 X-5.42 Y37.848 E.02673
G1 X-5.004 Y37.263 E.02673
G1 X-4.526 Y36.728 E.02673
G1 X-3.991 Y36.25 E.02673
G1 X-3.405 Y35.834 E.02673
G1 X-2.777 Y35.487 E.02673
G1 X-2.114 Y35.212 E.02673
G1 X-1.424 Y35.014 E.02673
G1 X-.717 Y34.893 E.02673
G1 X-.336 Y34.872 E.0142
G1 X0 Y34.853 E.01253
G1 X.717 Y34.893 E.02673
G1 X1.424 Y35.014 E.02673
G1 X2.114 Y35.212 E.02673
G1 X2.777 Y35.487 E.02673
G1 X3.405 Y35.834 E.02673
G1 X3.991 Y36.25 E.02673
G1 X4.526 Y36.728 E.02673
G1 X4.973 Y37.228 E.02501
G1 E-.8 F2100
;WIPE_START
G1 F3000
G1 X5.004 Y37.263
G1 X5.42 Y37.848
G1 X5.767 Y38.477
G1 X5.965 Y38.955
;WIPE_END
G1 X-1.61 Y39.891 Z.6 F30000
G1 X-24.534 Y42.723 Z.6
G1 Z.2
G1 E.8 F2100
;TYPE:Inner wall
G1 F3000
G1 X-24.549 Y42.767 E.00172
G1 X-24.838 Y43.317 E.02314
G1 X-25.211 Y43.813 E.02314
G1 X-25.659 Y44.244 E.02314
G1 X-26.17 Y44.597 E.02314
G1 X-26.731 Y44.863 E.02314
G1 X-27.328 Y45.036 E.02314
G1 X-27.945 Y45.111 E.02314
G1 X-28.565 Y45.086 E.02314
G1 X-29.174 Y44.961 E.02314
G1 X-29.709 Y44.758 E.02132
G1 X-30.289 Y44.433 E.02477
G1 X-30.774 Y44.038 E.02331
G1 X-31.186 Y43.573 E.02314
G1 X-31.518 Y43.048 E.02314
G1 X-31.761 Y42.476 E.02314
G1 X-31.91 Y41.873 E.02314
G1 X-31.96 Y41.254 E.02314
G1 X-31.91 Y40.635 E.02314
G1 X-31.761 Y40.031 E.02314
G1 X-31.518 Y39.46 E.02314
G1 X-31.186 Y38.935 E.02314
G1 X-30.774 Y38.47 E.02314
G1 X-30.293 Y38.077 E.02314
G1 X-29.755 Y37.767 E.02314
G1 X-29.174 Y37.546 E.02314
G1 X-28.565 Y37.422 E.02314
G1 X-27.993 Y37.399 E.02132
G1 X-27.332 Y37.471 E.02477
G1 X-26.731 Y37.645 E.02331
G1 X-26.17 Y37.911 E.02314
G1 X-25.659 Y38.264 E.02314
G1 X-25.211 Y38.694 E.02314
G1 X-24.838 Y39.191 E.02314
G1 X-24.549 Y39.741 E.02314
G1 X-24.352 Y40.33 E.02314
G1 X-24.253 Y40.943 E.02314
G1 X-24.253 Y41.564 E.02314
G1 X-24.352 Y42.178 E.02314
G1 X-24.522 Y42.685 E.01993
G1 X-24.968 Y42.578 F30000
;TYPE:Outer wall
G1 F3000
G1 X-24.971 Y42.587 E.00034
G1 X-25.225 Y43.072 E.02039
G1 X-25.554 Y43.509 E.02039
G1 X-25.949 Y43.888 E.02039
G1 X-26.399 Y44.199 E.02039
G1 X-26.894 Y44.434 E.02039
G1 X-27.42 Y44.586 E.02039
G1 X-27.963 Y44.652 E.02039
G1 X-28.51 Y44.63 E.02039
G1 X-29.046 Y44.521 E.02039
G1 X-29.515 Y44.343 E.01868
G1 X-30.031 Y44.054 E.02202
G1 X-30.456 Y43.707 E.02045
G1 X-30.819 Y43.297 E.02039
G1 X-31.112 Y42.834 E.02039
G1 X-31.326 Y42.331 E.02039
G1 X-31.457 Y41.799 E.02039
G1 X-31.501 Y41.254 E.02039
G1 X-31.457 Y40.708 E.02039
G1 X-31.326 Y40.177 E.02039
G1 X-31.112 Y39.673 E.02039
G1 X-30.819 Y39.21 E.02039
G1 X-30.456 Y38.801 E.02039
G1 X-30.032 Y38.455 E.02039
G1 X-29.558 Y38.181 E.02039
G1 X-29.046 Y37.987 E.02039
G1 X-28.51 Y37.877 E.02039
G1 X-28.009 Y37.857 E.01868
G1 X-27.421 Y37.921 E.02202
G1 X-26.894 Y38.074 E.02045
G1 X-26.399 Y38.308 E.02039
G1 X-25.949 Y38.619 E.02039
G1 X-25.554 Y38.998 E.02039
G1 X-25.225 Y39.436 E.02039
G1 X-24.971 Y39.921 E.02039
G1 X-24.798 Y40.44 E.02039
G1 X-24.71 Y40.98 E.02039
G1 X-24.71 Y41.527 E.02039
G1 X-24.798 Y42.068 E.02039
G1 X-24.955 Y42.54 E.01856
G1 E-.8 F2100
;WIPE_START
G1 F3000
G1 X-24.971 Y42.587
G1 X-25.225 Y43.072
G1 X-25.554 Y43.509
G1 X-25.949 Y43.888
G1 X-26.203 Y44.064
;WIPE_END
G1 X-33.832 Y44.289 Z.6 F30000
G1 X-49.712 Y44.757 Z.6
G1 Z.2
G1 E.8 F2100
;TYPE:Inner wall
G1 F3000
G1 X-49.755 Y44.741 E.00172
G1 X-50.293 Y44.43 E.02314
G1 X-50.774 Y44.038 E.02314
G1 X-51.186 Y43.573 E.02314
G1 X-51.518 Y43.048 E.02314
G1 X-51.761 Y42.476 E.02314
G1 X-51.91 Y41.873 E.02314
G1 X-51.96 Y41.254 E.02314
G1 X-51.91 Y40.635 E.02314
G1 X-51.761 Y40.031 E.02314
G1 X-51.518 Y39.46 E.02314
G1 X-51.212 Y38.976 E.02132
G1 X-50.777 Y38.473 E.02477
G1 X-50.293 Y38.077 E.02331
G1 X-49.755 Y37.767 E.02314
G1 X-49.174 Y37.546 E.02314
G1 X-48.565 Y37.422 E.02314
G1 X-47.993 Y37.399 E.02132
G1 X-47.332 Y37.471 E.02477
G1 X-46.731 Y37.645 E.02331
G1 X-46.17 Y37.911 E.02314
G1 X-45.659 Y38.264 E.02314
G1 X-45.211 Y38.694 E.02314
G1 X-44.867 Y39.152 E.02132
G1 X-44.55 Y39.736 E.02477
G1 X-44.352 Y40.33 E.02331
G1 X-44.253 Y40.943 E.02314
G1 X-44.253 Y41.564 E.02314
G1 X-44.352 Y42.178 E.02314
G1 X-44.549 Y42.767 E.02314
G1 X-44.838 Y43.317 E.02314
G1 X-45.211 Y43.813 E.02314
G1 X-45.659 Y44.244 E.02314
G1 X-46.17 Y44.597 E.02314
G1 X-46.731 Y44.863 E.02314
G1 X-47.328 Y45.036 E.02314
G1 X-47.945 Y45.111 E.02314
G1 X-48.565 Y45.086 E.02314
G1 X-49.174 Y44.961 E.02314
G1 X-49.674 Y44.771 E.01993
G1 X-49.55 Y44.33 F30000
;TYPE:Outer wall
G1 F3000
G1 X-49.558 Y44.327 E.00034
G1 X-50.032 Y44.053 E.02039
G1 X-50.456 Y43.707 E.02039
G1 X-50.819 Y43.297 E.02039
G1 X-51.112 Y42.834 E.02039
G1 X-51.326 Y42.331 E.02039
G1 X-51.457 Y41.799 E.02039
G1 X-51.501 Y41.254 E.02039
G1 X-51.457 Y40.708 E.02039
G1 X-51.326 Y40.177 E.02039
G1 X-51.112 Y39.673 E.02039
G1 X-50.844 Y39.249 E.01868
G1 X-50.457 Y38.802 E.02202
G1 X-50.032 Y38.455 E.02045
G1 X-49.558 Y38.181 E.02039
G1 X-49.046 Y37.987 E.02039
G1 X-48.51 Y37.877 E.02039
G1 X-48.009 Y37.857 E.01868
G1 X-47.421 Y37.921 E.02202
G1 X-46.894 Y38.074 E.02045
G1 X-46.399 Y38.308 E.02039
G1 X-45.949 Y38.619 E.02039
G1 X-45.554 Y38.998 E.02039
G1 X-45.253 Y39.399 E.01868
G1 X-44.971 Y39.919 E.02202
G1 X-44.798 Y40.44 E.02045
G1 X-44.71 Y40.98 E.02039
G1 X-44.71 Y41.527 E.02039
G1 X-44.798 Y42.068 E.02039
G1 X-44.971 Y42.587 E.02039
G1 X-45.225 Y43.072 E.02039
G1 X-45.554 Y43.509 E.02039
G1 X-45.949 Y43.888 E.02039
G1 X-46.399 Y44.199 E.02039
G1 X-46.894 Y44.434 E.02039
G1 X-47.42 Y44.586 E.02039
G1 X-47.963 Y44.652 E.02039
G1 X-48.51 Y44.63 E.02039
G1 X-49.046 Y44.521 E.02039
G1 X-49.512 Y44.344 E.01856
G1 E-.8 F2100
;WIPE_START
G1 F3000
G1 X-49.558 Y44.327
G1 X-50.032 Y44.053
G1 X-50.456 Y43.707
G1 X-50.819 Y43.297
G1 X-50.984 Y43.036
;WIPE_END
G1 X-43.374 Y42.457 Z.6 F30000
G1 X35.897 Y36.428 Z.6
G1 Z.2
G1 E.8 F2100
;TYPE:Inner wall
G1 F3000
G1 X36.526 Y36.539 E.02378
G1 X37.17 Y36.748 E.02525
G1 X37.78 Y37.046 E.02525
G1 X38.342 Y37.425 E.02525
G1 X38.845 Y37.878 E.02525
G1 X39.281 Y38.398 E.02525
G1 X39.64 Y38.973 E.02525
G1 X39.916 Y39.592 E.02525
G1 X40.103 Y40.244 E.02525
G1 X40.197 Y40.915 E.02525
G1 X40.197 Y41.593 E.02525
G1 X40.103 Y42.264 E.02525
G1 X39.916 Y42.916 E.02525
G1 X39.64 Y43.535 E.02525
G1 X39.281 Y44.11 E.02525
G1 X38.845 Y44.629 E.02525
G1 X38.342 Y45.083 E.02525
G1 X37.78 Y45.462 E.02525
G1 X37.17 Y45.759 E.02525
G1 X36.526 Y45.969 E.02525
G1 X35.858 Y46.086 E.02525
G1 X35.18 Y46.11 E.02525
G1 X34.506 Y46.039 E.02525
G1 X33.848 Y45.875 E.02525
G1 X33.22 Y45.621 E.02525
G1 X32.633 Y45.282 E.02525
G1 X32.099 Y44.865 E.02525
G1 X31.628 Y44.377 E.02525
G1 X31.229 Y43.829 E.02525
G1 X30.911 Y43.23 E.02525
G1 X30.679 Y42.593 E.02525
G1 X30.538 Y41.93 E.02525
G1 X30.491 Y41.254 E.02525
G1 X30.538 Y40.578 E.02525
G1 X30.679 Y39.914 E.02525
G1 X30.911 Y39.277 E.02525
G1 X31.229 Y38.679 E.02525
G1 X31.628 Y38.13 E.02525
G1 X32.099 Y37.643 E.02525
G1 X32.633 Y37.225 E.02525
G1 X33.22 Y36.886 E.02525
G1 X33.848 Y36.632 E.02525
G1 X34.506 Y36.468 E.02525
G1 X35.129 Y36.403 E.02333
G1 X35.854 Y36.421 E.02701
G1 X35.857 Y36.421 E.00012
G1 X35.817 Y36.878 F30000
;TYPE:Outer wall
G1 F3000
G1 X36.415 Y36.984 E.02259
G1 X36.999 Y37.173 E.02287
G1 X37.55 Y37.442 E.02287
G1 X38.06 Y37.786 E.02287
G1 X38.516 Y38.197 E.02287
G1 X38.91 Y38.667 E.02287
G1 X39.236 Y39.188 E.02287
G1 X39.486 Y39.749 E.02287
G1 X39.655 Y40.339 E.02287
G1 X39.74 Y40.947 E.02287
G1 X39.74 Y41.561 E.02287
G1 X39.655 Y42.169 E.02287
G1 X39.486 Y42.759 E.02287
G1 X39.236 Y43.32 E.02287
G1 X38.91 Y43.841 E.02287
G1 X38.516 Y44.311 E.02287
G1 X38.06 Y44.722 E.02287
G1 X37.55 Y45.065 E.02287
G1 X36.999 Y45.334 E.02287
G1 X36.415 Y45.524 E.02287
G1 X35.81 Y45.631 E.02287
G1 X35.196 Y45.652 E.02287
G1 X34.586 Y45.588 E.02287
G1 X33.99 Y45.439 E.02287
G1 X33.421 Y45.209 E.02287
G1 X33.155 Y45.056 E.01143
G1 X32.889 Y44.902 E.01143
G1 X32.405 Y44.524 E.02287
G1 X31.979 Y44.083 E.02287
G1 X31.618 Y43.586 E.02287
G1 X31.33 Y43.044 E.02287
G1 X31.12 Y42.467 E.02287
G1 X30.992 Y41.866 E.02287
G1 X30.949 Y41.254 E.02287
G1 X30.992 Y40.641 E.02287
G1 X31.12 Y40.041 E.02287
G1 X31.33 Y39.464 E.02287
G1 X31.618 Y38.922 E.02287
G1 X31.979 Y38.425 E.02287
G1 X32.405 Y37.983 E.02287
G1 X32.889 Y37.605 E.02287
G1 X33.421 Y37.298 E.02287
G1 X33.99 Y37.068 E.02287
G1 X34.586 Y36.92 E.02287
G1 X35.148 Y36.861 E.02104
G1 X35.777 Y36.876 E.02346
G1 E-.8 F2100
;WIPE_START
G1 F3000
G1 X36.415 Y36.984
G1 X36.999 Y37.173
G1 X37.55 Y37.442
G1 X37.655 Y37.513
;WIPE_END
G1 X30.177 Y35.983 Z.6 F30000
G1 X-60.832 Y17.368 Z.6
G1 Z.2
G1 E.8 F2100
;TYPE:Inner wall
G1 F3000
G1 X-60.22 Y17.399 E.02284
G1 X59.713 Y17.403 E4.46706
G1 X60.832 Y17.37 E.04169
G1 X60.739 Y17.986 E.02322
G1 X60.702 Y18.536 E.02052
G1 X60.696 Y19.558 E.03805
G1 X60.707 Y64.948 E1.69062
G1 X-60.706 Y64.948 E4.52216
G1 X-60.696 Y19.558 E1.69062
G1 X-60.702 Y18.536 E.03805
G1 X-60.739 Y17.986 E.02052
G1 X-60.827 Y17.407 E.02181
G1 X-61.307 Y17.284 F30000
;TYPE:Outer wall
G1 F3000
G1 X-63.334 Y17.278 E.07548
G1 X-63.776 Y17.218 E.01663
G1 X-64.302 Y17.185 E.01961
G1 X-64.3 Y-71.72 E3.31139
G1 X-63.6 Y-71.72 E.02607
G1 X-63.6 Y14.555 E3.21341
G1 X-63.593 Y15.559 E.03742
G1 X-63.559 Y16.075 E.01926
G1 X-63.445 Y16.827 E.0283
G1 X-61.709 Y16.827 E.06469
G1 X-61.224 Y16.855 E.01808
G1 X-60.723 Y16.916 E.01878
G1 X-60.209 Y16.941 E.01919
G1 X59.706 Y16.946 E4.46638
G1 X60.721 Y16.916 E.03779
M73 P1 R58
G1 X61.224 Y16.855 E.01888
G1 X61.709 Y16.827 E.01808
G1 X63.445 Y16.827 E.06469
G1 X63.559 Y16.075 E.0283
G1 X63.593 Y15.56 E.01924
G1 X63.6 Y15.053 E.01887
G1 X63.6 Y-71.72 E3.23199
G1 X64.3 Y-71.72 E.02607
G1 X64.302 Y17.185 E3.31139
G1 X63.776 Y17.218 E.01961
G1 X63.334 Y17.278 E.01663
G1 X61.307 Y17.284 E.07548
G1 X61.194 Y18.036 E.02831
G1 X61.159 Y18.553 E.01929
G1 X61.153 Y19.559 E.03748
G1 X61.164 Y65.065 E1.69493
G1 X61.071 Y65.221 E.00678
G1 X60.995 Y65.295 E.00392
G1 X60.803 Y65.39 E.00801
G1 X60.676 Y65.405 E.00473
G1 X-60.676 Y65.405 E4.51994
G1 X-60.803 Y65.39 E.00473
G1 X-60.902 Y65.354 E.00395
G1 X-61.071 Y65.221 E.00799
G1 X-61.163 Y65.067 E.00669
G1 X-61.153 Y19.559 E1.69501
G1 X-61.159 Y18.553 E.03748
G1 X-61.194 Y18.036 E.01929
G1 X-61.301 Y17.324 E.02682
G1 E-.8 F2100
;WIPE_START
G1 F3000
G1 X-63.301 Y17.279
;WIPE_END
G1 X-63.864 Y16.987 Z.6 F30000
G1 Z.2
G1 E.8 F2100
;TYPE:Gap infill
;WIDTH:0.415096
G1 F3000
G1 X-63.885 Y16.699 E.00877
;WIDTH:0.381516
G1 X-63.907 Y16.41 E.00798
;WIDTH:0.347239
G1 X-63.93 Y16.11 E.00747
;WIDTH:0.287699
G1 X-63.951 Y14.555 E.031
G1 X-63.95 Y-71.492 E1.71633
G1 E-.8 F2100
;WIPE_START
G1 F3000
G1 X-63.95 Y-69.492
;WIPE_END
G1 X-56.318 Y-69.611 Z.6 F30000
G1 X63.95 Y-71.492 Z.6
G1 Z.2
G1 E.8 F2100
;WIDTH:0.288071
G1 F3000
G1 X63.951 Y15.055 E1.72891
G1 X63.93 Y16.11 E.02107
;WIDTH:0.347238
G1 X63.907 Y16.41 E.00747
;WIDTH:0.381515
G1 X63.885 Y16.699 E.00798
;WIDTH:0.415096
G1 X63.864 Y16.987 E.00877
G1 E-.8 F2100
;WIPE_START
G1 F3000
G1 X63.885 Y16.699
;WIPE_END
G1 X59.776 Y17.538 Z.6 F30000
G1 Z.2
G1 E.8 F2100
;TYPE:Bottom surface
;WIDTH:0.501548
G1 F4800
G1 X60.385 Y18.147 E.03217
G1 X60.358 Y18.769 E.02326
G1 X59.335 Y17.746 E.05407
G1 X58.686 Y17.746 E.02424
G1 X60.354 Y19.413 E.08814
G1 X60.353 Y20.061 E.02421
G1 X58.038 Y17.746 E.12237
G1 X57.389 Y17.746 E.02424
G1 X60.353 Y20.71 E.15666
G1 X60.353 Y21.359 E.02425
G1 X56.74 Y17.746 E.19095
G1 X56.092 Y17.746 E.02424
G1 X60.353 Y22.007 E.22524
G1 X60.354 Y22.656 E.02425
G1 X55.443 Y17.746 E.25953
G1 X54.795 Y17.746 E.02424
G1 X60.354 Y23.305 E.29382
G1 X60.354 Y23.954 E.02425
G1 X54.146 Y17.746 E.32811
G1 X53.497 Y17.746 E.02424
G1 X60.354 Y24.603 E.3624
G1 X60.354 Y25.251 E.02425
G1 X52.849 Y17.746 E.39669
G1 X52.2 Y17.746 E.02424
G1 X60.354 Y25.9 E.43098
G1 X60.355 Y26.549 E.02425
G1 X51.551 Y17.746 E.46527
G1 X50.903 Y17.746 E.02424
G1 X60.355 Y27.198 E.49956
G1 X60.355 Y27.846 E.02425
G1 X50.254 Y17.746 E.53385
G1 X49.606 Y17.746 E.02424
G1 X60.355 Y28.495 E.56814
G1 X60.355 Y29.144 E.02425
G1 X48.957 Y17.745 E.60243
G1 X48.308 Y17.745 E.02424
G1 X60.355 Y29.793 E.63672
G1 X60.356 Y30.441 E.02425
G1 X47.66 Y17.745 E.67101
G1 X47.011 Y17.745 E.02424
G1 X60.356 Y31.09 E.7053
G1 X60.356 Y31.739 E.02425
G1 X46.362 Y17.745 E.73959
G1 X45.714 Y17.745 E.02424
G1 X60.356 Y32.388 E.77388
G1 X60.356 Y33.036 E.02425
G1 X45.065 Y17.745 E.80817
